;FLAVOR:Marlin
;TIME:4456
;Filament used: 2.42744m
;Layer height: 0.12
;MINX:55.22
;MINY:69.72
;MINZ:0.12
;MAXX:124.78
;MAXY:110.28
;MAXZ:8.76
;Generated with Cura_SteamEngine 5.0.0
M140 S60
M105
M190 S60
M104 S200
M105
M109 S200
M82 ;absolute extrusion mode
G28 ; home all axes
 M117 Purge extruder
 G92 E0 ; reset extruder
 G1 Z1.0 F3000 ; move z up little to prevent scratching of surface
 G1 X2 Y20 Z0.3 F5000.0 ; move to start-line position
 G1 X2 Y175.0 Z0.3 F1500.0 E15 ; draw 1st line
 G1 X2 Y175.0 Z0.4 F5000.0 ; move to side a little
 G1 X2 Y20 Z0.4 F1500.0 E30 ; draw 2nd line
 G92 E0 ; reset extruder
 G1 Z1.0 F3000 ; move z up little to prevent scratching of surface
G92 E0
G92 E0
G1 F2400 E-1
;LAYER_COUNT:71
;LAYER:0
M107
G1 F240 Z0.36
;MESH:???????????????_??????.stl
G0 F6000 X55.27 Y110.23 Z0.36
;TYPE:WALL-OUTER
G1 F240 Z0.12
G1 F2400 E0
G1 F1200 X124.73 Y110.23 E1.52476
G1 X124.73 Y69.77 E2.41293
G1 X55.27 Y69.77 E3.93769
G1 X55.27 Y110.23 E4.82586
G0 F6000 X55.71 Y109.79
;TYPE:WALL-INNER
G1 F1200 X124.29 Y109.79 E6.33131
G1 X124.29 Y70.21 E7.20015
G1 X55.71 Y70.21 E8.7056
G1 X55.71 Y109.79 E9.57445
G0 F6000 X56.15 Y109.35
G1 F1200 X123.85 Y109.35 E11.06058
G1 X123.85 Y70.65 E11.91011
G1 X56.15 Y70.65 E13.39624
G1 X56.15 Y109.35 E14.24577
G0 F6000 X56.546 Y108.954
;TYPE:SKIN
G1 F1200 X123.454 Y108.954 E15.71451
G1 X123.454 Y71.046 E16.54666
G1 X56.546 Y71.046 E18.0154
G1 X56.546 Y108.954 E18.84754
G0 F6000 X57.086 Y108.733
G1 F1200 X56.765 Y108.412 E18.85751
G0 F6000 X56.765 Y107.79
G1 F1200 X57.708 Y108.733 E18.88678
G0 F6000 X58.33 Y108.733
G1 F1200 X56.765 Y107.168 E18.93537
G0 F6000 X56.765 Y106.546
G1 F1200 X58.952 Y108.733 E19.00326
G0 F6000 X59.575 Y108.733
G1 F1200 X56.765 Y105.923 E19.0905
G0 F6000 X56.765 Y105.301
G1 F1200 X60.197 Y108.733 E19.19704
G0 F6000 X60.819 Y108.733
G1 F1200 X56.765 Y104.679 E19.3229
G0 F6000 X56.765 Y104.057
G1 F1200 X61.441 Y108.733 E19.46806
G0 F6000 X62.064 Y108.733
G1 F1200 X56.765 Y103.434 E19.63256
G0 F6000 X56.765 Y102.812
G1 F1200 X62.686 Y108.733 E19.81638
G0 F6000 X63.308 Y108.733
G1 F1200 X56.765 Y102.19 E20.0195
G0 F6000 X56.765 Y101.568
G1 F1200 X63.93 Y108.733 E20.24193
G0 F6000 X64.553 Y108.733
G1 F1200 X56.765 Y100.945 E20.48371
G0 F6000 X56.765 Y100.323
G1 F1200 X65.175 Y108.733 E20.74479
G0 F6000 X65.797 Y108.733
G1 F1200 X56.765 Y99.701 E21.02518
G0 F6000 X56.765 Y99.079
G1 F1200 X66.419 Y108.733 E21.32489
G0 F6000 X67.042 Y108.733
G1 F1200 X56.765 Y98.456 E21.64393
G0 F6000 X56.765 Y97.834
G1 F1200 X67.664 Y108.733 E21.98228
G0 F6000 X68.286 Y108.733
G1 F1200 X56.765 Y97.212 E22.33994
G0 F6000 X56.765 Y96.59
G1 F1200 X68.908 Y108.733 E22.71692
G0 F6000 X69.531 Y108.733
G1 F1200 X56.765 Y95.967 E23.11323
G0 F6000 X56.765 Y95.345
G1 F1200 X70.153 Y108.733 E23.52885
G0 F6000 X70.775 Y108.733
G1 F1200 X56.765 Y94.723 E23.96378
G0 F6000 X56.765 Y94.101
G1 F1200 X71.397 Y108.733 E24.41802
G0 F6000 X72.02 Y108.733
G1 F1200 X56.765 Y93.478 E24.89161
G0 F6000 X56.765 Y92.856
G1 F1200 X72.642 Y108.733 E25.3845
G0 F6000 X73.264 Y108.733
G1 F1200 X56.765 Y92.234 E25.8967
G0 F6000 X56.765 Y91.612
G1 F1200 X73.887 Y108.733 E26.42822
G0 F6000 X74.509 Y108.733
G1 F1200 X56.765 Y90.989 E26.97908
G0 F6000 X56.765 Y90.367
G1 F1200 X75.131 Y108.733 E27.54924
G0 F6000 X75.753 Y108.733
G1 F1200 X56.765 Y89.745 E28.13871
G0 F6000 X56.765 Y89.123
G1 F1200 X76.376 Y108.733 E28.7475
G0 F6000 X76.998 Y108.733
G1 F1200 X56.765 Y88.5 E29.37562
G0 F6000 X56.765 Y87.878
G1 F1200 X77.62 Y108.733 E30.02305
G0 F6000 X78.242 Y108.733
G1 F1200 X56.765 Y87.256 E30.68979
G0 F6000 X56.765 Y86.634
G1 F1200 X78.865 Y108.733 E31.37586
G0 F6000 X79.487 Y108.733
G1 F1200 X56.765 Y86.011 E32.08125
G0 F6000 X56.765 Y85.389
G1 F1200 X80.109 Y108.733 E32.80595
G0 F6000 X80.731 Y108.733
G1 F1200 X56.765 Y84.767 E33.54996
G0 F6000 X56.765 Y84.144
G1 F1200 X81.354 Y108.733 E34.31331
G0 F6000 X81.976 Y108.733
G1 F1200 X56.765 Y83.522 E35.09597
G0 F6000 X56.765 Y82.9
G1 F1200 X82.598 Y108.733 E35.89794
G0 F6000 X83.22 Y108.733
G1 F1200 X56.765 Y82.278 E36.71922
G0 F6000 X56.765 Y81.655
G1 F1200 X83.843 Y108.733 E37.55984
G0 F6000 X84.465 Y108.733
G1 F1200 X56.765 Y81.033 E38.41977
G0 F6000 X56.765 Y80.411
G1 F1200 X85.087 Y108.733 E39.29901
G0 F6000 X85.709 Y108.733
G1 F1200 X56.765 Y79.789 E40.19755
G0 F6000 X56.765 Y79.166
G1 F1200 X86.332 Y108.733 E41.11544
G0 F6000 X86.954 Y108.733
G1 F1200 X56.765 Y78.544 E42.05264
G0 F6000 X56.765 Y77.922
G1 F1200 X87.576 Y108.733 E43.00915
G0 F6000 X88.198 Y108.733
G1 F1200 X56.765 Y77.3 E43.98497
G0 F6000 X56.765 Y76.677
G1 F1200 X88.821 Y108.733 E44.98013
G0 F6000 X89.443 Y108.733
G1 F1200 X56.765 Y76.055 E45.99459
G0 F6000 X56.765 Y75.433
G1 F1200 X90.065 Y108.733 E47.02837
G0 F6000 X90.687 Y108.733
G1 F1200 X56.765 Y74.811 E48.08146
G0 F6000 X56.765 Y74.188
G1 F1200 X91.31 Y108.733 E49.15389
G0 F6000 X91.932 Y108.733
G1 F1200 X56.765 Y73.566 E50.24563
G0 F6000 X56.765 Y72.944
G1 F1200 X92.554 Y108.733 E51.35667
G0 F6000 X93.176 Y108.733
G1 F1200 X56.765 Y72.322 E52.48703
G0 F6000 X56.765 Y71.699
G1 F1200 X93.799 Y108.733 E53.63673
G0 F6000 X94.421 Y108.733
G1 F1200 X56.954 Y71.266 E54.79987
G0 F6000 X57.576 Y71.266
G1 F1200 X95.043 Y108.733 E55.96301
G0 F6000 X95.665 Y108.733
G1 F1200 X58.199 Y71.266 E57.12613
G0 F6000 X58.821 Y71.266
G1 F1200 X96.288 Y108.733 E58.28927
G0 F6000 X96.91 Y108.733
G1 F1200 X59.443 Y71.266 E59.45241
G0 F6000 X60.065 Y71.266
G1 F1200 X97.532 Y108.733 E60.61555
G0 F6000 X98.154 Y108.733
G1 F1200 X60.688 Y71.266 E61.77867
G0 F6000 X61.31 Y71.266
G1 F1200 X98.777 Y108.733 E62.94181
G0 F6000 X99.399 Y108.733
G1 F1200 X61.932 Y71.266 E64.10495
G0 F6000 X62.554 Y71.266
G1 F1200 X100.021 Y108.733 E65.26809
G0 F6000 X100.643 Y108.733
G1 F1200 X63.177 Y71.266 E66.43122
G0 F6000 X63.799 Y71.266
G1 F1200 X101.266 Y108.733 E67.59436
G0 F6000 X101.888 Y108.733
G1 F1200 X64.421 Y71.266 E68.7575
G0 F6000 X65.043 Y71.266
G1 F1200 X102.51 Y108.733 E69.92064
G0 F6000 X103.132 Y108.733
G1 F1200 X65.666 Y71.266 E71.08376
G0 F6000 X66.288 Y71.266
G1 F1200 X103.755 Y108.733 E72.2469
G0 F6000 X104.377 Y108.733
G1 F1200 X66.91 Y71.266 E73.41004
G0 F6000 X67.532 Y71.266
G1 F1200 X104.999 Y108.733 E74.57318
G0 F6000 X105.621 Y108.733
G1 F1200 X68.155 Y71.266 E75.7363
G0 F6000 X68.777 Y71.266
G1 F1200 X106.244 Y108.733 E76.89944
G0 F6000 X106.866 Y108.733
G1 F1200 X69.399 Y71.266 E78.06258
G0 F6000 X70.021 Y71.266
G1 F1200 X107.488 Y108.733 E79.22572
G0 F6000 X108.11 Y108.733
G1 F1200 X70.644 Y71.266 E80.38885
G0 F6000 X71.266 Y71.266
G1 F1200 X108.733 Y108.733 E81.55199
G0 F6000 X109.355 Y108.733
G1 F1200 X71.888 Y71.266 E82.71512
G0 F6000 X72.51 Y71.266
G1 F1200 X109.977 Y108.733 E83.87826
G0 F6000 X110.599 Y108.733
G1 F1200 X73.133 Y71.266 E85.04139
G0 F6000 X73.755 Y71.266
G1 F1200 X111.222 Y108.733 E86.20453
G0 F6000 X111.844 Y108.733
G1 F1200 X74.377 Y71.266 E87.36767
G0 F6000 X74.999 Y71.266
G1 F1200 X112.466 Y108.733 E88.53081
G0 F6000 X113.089 Y108.733
G1 F1200 X75.622 Y71.266 E89.69395
G0 F6000 X76.244 Y71.266
G1 F1200 X113.711 Y108.733 E90.85709
G0 F6000 X114.333 Y108.733
G1 F1200 X76.866 Y71.266 E92.02023
G0 F6000 X77.489 Y71.266
G1 F1200 X114.955 Y108.733 E93.18335
G0 F6000 X115.578 Y108.733
G1 F1200 X78.111 Y71.266 E94.34649
G0 F6000 X78.733 Y71.266
G1 F1200 X116.2 Y108.733 E95.50963
G0 F6000 X116.822 Y108.733
G1 F1200 X79.355 Y71.266 E96.67277
G0 F6000 X79.978 Y71.266
G1 F1200 X117.444 Y108.733 E97.83589
G0 F6000 X118.067 Y108.733
G1 F1200 X80.6 Y71.266 E98.99903
G0 F6000 X81.222 Y71.266
G1 F1200 X118.689 Y108.733 E100.16217
G0 F6000 X119.311 Y108.733
G1 F1200 X81.844 Y71.266 E101.32531
G0 F6000 X82.467 Y71.266
G1 F1200 X119.933 Y108.733 E102.48844
G0 F6000 X120.556 Y108.733
G1 F1200 X83.089 Y71.266 E103.65158
G0 F6000 X83.711 Y71.266
G1 F1200 X121.178 Y108.733 E104.81472
G0 F6000 X121.8 Y108.733
G1 F1200 X84.333 Y71.266 E105.97786
G0 F6000 X84.956 Y71.266
G1 F1200 X122.422 Y108.733 E107.14098
G0 F6000 X123.045 Y108.733
G1 F1200 X85.578 Y71.266 E108.30412
G0 F6000 X86.2 Y71.266
G1 F1200 X123.233 Y108.299 E109.45379
G0 F6000 X123.233 Y107.677
G1 F1200 X86.822 Y71.266 E110.58414
G0 F6000 X87.445 Y71.266
G1 F1200 X123.233 Y107.055 E111.69517
G0 F6000 X123.233 Y106.433
G1 F1200 X88.067 Y71.266 E112.7869
G0 F6000 X88.689 Y71.266
G1 F1200 X123.233 Y105.81 E113.85929
G0 F6000 X123.233 Y105.188
G1 F1200 X89.311 Y71.266 E114.91238
G0 F6000 X89.934 Y71.266
G1 F1200 X123.233 Y104.566 E115.94614
G0 F6000 X123.233 Y103.943
G1 F1200 X90.556 Y71.266 E116.96058
G0 F6000 X91.178 Y71.266
G1 F1200 X123.233 Y103.321 E117.95571
G0 F6000 X123.233 Y102.699
G1 F1200 X91.8 Y71.266 E118.93153
G0 F6000 X92.423 Y71.266
G1 F1200 X123.233 Y102.077 E119.88802
G0 F6000 X123.233 Y101.454
G1 F1200 X93.045 Y71.266 E120.82519
G0 F6000 X93.667 Y71.266
G1 F1200 X123.233 Y100.832 E121.74304
G0 F6000 X123.233 Y100.21
G1 F1200 X94.289 Y71.266 E122.64159
G0 F6000 X94.912 Y71.266
G1 F1200 X123.233 Y99.588 E123.52082
G0 F6000 X123.233 Y98.965
G1 F1200 X95.534 Y71.266 E124.38071
G0 F6000 X96.156 Y71.266
G1 F1200 X123.233 Y98.343 E125.2213
G0 F6000 X123.233 Y97.721
G1 F1200 X96.778 Y71.266 E126.04258
G0 F6000 X97.401 Y71.266
G1 F1200 X123.233 Y97.099 E126.84454
G0 F6000 X123.233 Y96.476
G1 F1200 X98.023 Y71.266 E127.62716
G0 F6000 X98.645 Y71.266
G1 F1200 X123.233 Y95.854 E128.39048
G0 F6000 X123.233 Y95.232
G1 F1200 X99.267 Y71.266 E129.13449
G0 F6000 X99.89 Y71.266
G1 F1200 X123.233 Y94.61 E129.85918
G0 F6000 X123.233 Y93.987
G1 F1200 X100.512 Y71.266 E130.56454
G0 F6000 X101.134 Y71.266
G1 F1200 X123.233 Y93.365 E131.25059
G0 F6000 X123.233 Y92.743
G1 F1200 X101.756 Y71.266 E131.91733
G0 F6000 X102.379 Y71.266
G1 F1200 X123.233 Y92.121 E132.56474
G0 F6000 X123.233 Y91.498
G1 F1200 X103.001 Y71.266 E133.19283
G0 F6000 X103.623 Y71.266
G1 F1200 X123.233 Y90.876 E133.80161
G0 F6000 X123.233 Y90.254
G1 F1200 X104.245 Y71.266 E134.39108
G0 F6000 X104.868 Y71.266
G1 F1200 X123.233 Y89.632 E134.96123
G0 F6000 X123.233 Y89.009
G1 F1200 X105.49 Y71.266 E135.51205
G0 F6000 X106.112 Y71.266
G1 F1200 X123.233 Y88.387 E136.04356
G0 F6000 X123.233 Y87.765
G1 F1200 X106.734 Y71.266 E136.55576
G0 F6000 X107.357 Y71.266
G1 F1200 X123.233 Y87.143 E137.04864
G0 F6000 X123.233 Y86.52
G1 F1200 X107.979 Y71.266 E137.52219
G0 F6000 X108.601 Y71.266
G1 F1200 X123.233 Y85.898 E137.97643
G0 F6000 X123.233 Y85.276
G1 F1200 X109.223 Y71.266 E138.41136
G0 F6000 X109.846 Y71.266
G1 F1200 X123.233 Y84.654 E138.82697
G0 F6000 X123.233 Y84.031
G1 F1200 X110.468 Y71.266 E139.22325
G0 F6000 X111.09 Y71.266
G1 F1200 X123.233 Y83.409 E139.60022
G0 F6000 X123.233 Y82.787
G1 F1200 X111.712 Y71.266 E139.95788
G0 F6000 X112.335 Y71.266
G1 F1200 X123.233 Y82.165 E140.29622
G0 F6000 X123.233 Y81.542
G1 F1200 X112.957 Y71.266 E140.61523
G0 F6000 X113.579 Y71.266
G1 F1200 X123.233 Y80.92 E140.91493
G0 F6000 X123.233 Y80.298
G1 F1200 X114.201 Y71.266 E141.19533
G0 F6000 X114.824 Y71.266
G1 F1200 X123.233 Y79.676 E141.45639
G0 F6000 X123.233 Y79.053
G1 F1200 X115.446 Y71.266 E141.69814
G0 F6000 X116.068 Y71.266
G1 F1200 X123.233 Y78.431 E141.92057
G0 F6000 X123.233 Y77.809
G1 F1200 X116.691 Y71.266 E142.12368
G0 F6000 X117.313 Y71.266
G1 F1200 X123.233 Y77.187 E142.30748
G0 F6000 X123.233 Y76.564
G1 F1200 X117.935 Y71.266 E142.47195
G0 F6000 X118.557 Y71.266
G1 F1200 X123.233 Y75.942 E142.61711
G0 F6000 X123.233 Y75.32
G1 F1200 X119.18 Y71.266 E142.74295
G0 F6000 X119.802 Y71.266
G1 F1200 X123.233 Y74.698 E142.84948
G0 F6000 X123.233 Y74.075
G1 F1200 X120.424 Y71.266 E142.93668
G0 F6000 X121.046 Y71.266
G1 F1200 X123.233 Y73.453 E143.00458
G0 F6000 X123.233 Y72.831
G1 F1200 X121.669 Y71.266 E143.05315
G0 F6000 X122.291 Y71.266
G1 F1200 X123.233 Y72.209 E143.08241
G0 F6000 X123.233 Y71.586
G1 F1200 X122.913 Y71.266 E143.09234
G1 F2400 E142.09234
G1 F240 Z0.36
;MESH:NONMESH
G0 F6000 X55.22 Y110.28 Z0.36
;TIME_ELAPSED:344.678936
;LAYER:1
M106 S85
;MESH:???????????????_??????.stl
G0 F7500 X55.22 Y110.28 Z0.48
;TYPE:WALL-OUTER
G1 F240 Z0.24
G1 F2400 E143.09234
G1 F1500 X124.78 Y110.28 E144.6193
G1 X124.78 Y69.72 E145.50966
G1 X55.22 Y69.72 E147.03662
G1 X55.22 Y110.28 E147.92698
G0 F7500 X55.66 Y109.84
;TYPE:WALL-INNER
G1 F1500 X124.34 Y109.84 E149.43462
G1 X124.34 Y70.16 E150.30566
G1 X55.66 Y70.16 E151.81331
G1 X55.66 Y109.84 E152.68435
G0 F7500 X56.1 Y109.4
G1 F1500 X123.9 Y109.4 E154.17267
G1 X123.9 Y70.6 E155.0244
G1 X56.1 Y70.6 E156.51272
G1 X56.1 Y109.4 E157.36445
G0 F7500 X56.496 Y109.004
;TYPE:SKIN
G1 F1500 X123.504 Y109.004 E158.83539
G1 X123.504 Y70.996 E159.66973
G1 X56.496 Y70.996 E161.14067
G1 X56.496 Y109.004 E161.97501
G1 F2400 E160.97501
G1 F240 Z0.48
G0 F7500 X56.716 Y71.467 Z0.48
G1 F240 Z0.24
G1 F2400 E161.97501
G1 F1500 X56.968 Y71.215 E161.98283
G0 F7500 X57.591 Y71.215
G1 F1500 X56.716 Y72.09 E162.00999
G0 F7500 X56.716 Y72.712
G1 F1500 X58.213 Y71.215 E162.05647
G0 F7500 X58.835 Y71.215
G1 F1500 X56.716 Y73.334 E162.12225
G0 F7500 X56.716 Y73.957
G1 F1500 X59.457 Y71.215 E162.20736
G0 F7500 X60.08 Y71.215
G1 F1500 X56.716 Y74.579 E162.31179
G0 F7500 X56.716 Y75.201
G1 F1500 X60.702 Y71.215 E162.43553
G0 F7500 X61.324 Y71.215
G1 F1500 X56.716 Y75.823 E162.57859
G0 F7500 X56.716 Y76.446
G1 F1500 X61.946 Y71.215 E162.74096
G0 F7500 X62.569 Y71.215
G1 F1500 X56.716 Y77.068 E162.92267
G0 F7500 X56.716 Y77.69
G1 F1500 X63.191 Y71.215 E163.12368
G0 F7500 X63.813 Y71.215
G1 F1500 X56.716 Y78.312 E163.344
G0 F7500 X56.716 Y78.935
G1 F1500 X64.435 Y71.215 E163.58365
G0 F7500 X65.058 Y71.215
G1 F1500 X56.716 Y79.557 E163.84262
G0 F7500 X56.716 Y80.179
G1 F1500 X65.68 Y71.215 E164.1209
G0 F7500 X66.302 Y71.215
G1 F1500 X56.716 Y80.801 E164.41849
G0 F7500 X56.716 Y81.424
G1 F1500 X66.924 Y71.215 E164.73541
G0 F7500 X67.547 Y71.215
G1 F1500 X56.716 Y82.046 E165.07165
G0 F7500 X56.716 Y82.668
G1 F1500 X68.169 Y71.215 E165.4272
G0 F7500 X68.791 Y71.215
G1 F1500 X56.716 Y83.29 E165.80206
G0 F7500 X56.716 Y83.913
G1 F1500 X69.413 Y71.215 E166.19625
G0 F7500 X70.036 Y71.215
G1 F1500 X56.716 Y84.535 E166.60976
G0 F7500 X56.716 Y85.157
G1 F1500 X70.658 Y71.215 E167.04258
G0 F7500 X71.28 Y71.215
G1 F1500 X56.716 Y85.779 E167.49471
G0 F7500 X56.716 Y86.402
G1 F1500 X71.902 Y71.215 E167.96617
G0 F7500 X72.525 Y71.215
G1 F1500 X56.716 Y87.024 E168.45695
G0 F7500 X56.716 Y87.646
G1 F1500 X73.147 Y71.215 E168.96704
G0 F7500 X73.769 Y71.215
G1 F1500 X56.716 Y88.268 E169.49644
G0 F7500 X56.716 Y88.891
G1 F1500 X74.391 Y71.215 E170.04516
G0 F7500 X75.014 Y71.215
G1 F1500 X56.716 Y89.513 E170.61321
G0 F7500 X56.716 Y90.135
G1 F1500 X75.636 Y71.215 E171.20057
G0 F7500 X76.258 Y71.215
G1 F1500 X56.716 Y90.757 E171.80724
G0 F7500 X56.716 Y91.38
G1 F1500 X76.88 Y71.215 E172.43324
G0 F7500 X77.503 Y71.215
G1 F1500 X56.716 Y92.002 E173.07856
G0 F7500 X56.716 Y92.624
G1 F1500 X78.125 Y71.215 E173.74318
G0 F7500 X78.747 Y71.215
G1 F1500 X56.716 Y93.246 E174.42712
G0 F7500 X56.716 Y93.869
G1 F1500 X79.369 Y71.215 E175.13039
G0 F7500 X79.992 Y71.215
G1 F1500 X56.716 Y94.491 E175.85298
G0 F7500 X56.716 Y95.113
G1 F1500 X80.614 Y71.215 E176.59487
G0 F7500 X81.236 Y71.215
G1 F1500 X56.716 Y95.735 E177.35608
G0 F7500 X56.716 Y96.358
G1 F1500 X81.858 Y71.215 E178.13662
G0 F7500 X82.481 Y71.215
G1 F1500 X56.716 Y96.98 E178.93647
G0 F7500 X56.716 Y97.602
G1 F1500 X83.103 Y71.215 E179.75564
G0 F7500 X83.725 Y71.215
G1 F1500 X56.716 Y98.224 E180.59412
G0 F7500 X56.716 Y98.847
G1 F1500 X84.347 Y71.215 E181.45192
G0 F7500 X84.97 Y71.215
G1 F1500 X56.716 Y99.469 E182.32905
G0 F7500 X56.716 Y100.091
G1 F1500 X85.592 Y71.215 E183.22549
G0 F7500 X86.214 Y71.215
G1 F1500 X56.716 Y100.713 E184.14123
G0 F7500 X56.716 Y101.336
G1 F1500 X86.836 Y71.215 E185.07631
G0 F7500 X87.459 Y71.215
G1 F1500 X56.716 Y101.958 E186.0307
G0 F7500 X56.716 Y102.58
G1 F1500 X88.081 Y71.215 E187.00441
G0 F7500 X88.703 Y71.215
G1 F1500 X56.716 Y103.202 E187.99743
G0 F7500 X56.716 Y103.825
G1 F1500 X89.325 Y71.215 E189.00977
G0 F7500 X89.948 Y71.215
G1 F1500 X56.716 Y104.447 E190.04144
G0 F7500 X56.716 Y105.069
G1 F1500 X90.57 Y71.215 E191.09241
