;FLAVOR:Marlin
;TIME:4409
;Filament used: 2.55616m
;Layer height: 0.12
;MINX:55.22
;MINY:66.72
;MINZ:0.12
;MAXX:124.78
;MAXY:113.28
;MAXZ:5.76
;Generated with Cura_SteamEngine 5.0.0
M140 S60
M105
M190 S60
M104 S200
M105
M109 S200
M82 ;absolute extrusion mode
G28 ; home all axes
 M117 Purge extruder
 G92 E0 ; reset extruder
 G1 Z1.0 F3000 ; move z up little to prevent scratching of surface
 G1 X2 Y20 Z0.3 F5000.0 ; move to start-line position
 G1 X2 Y175.0 Z0.3 F1500.0 E15 ; draw 1st line
 G1 X2 Y175.0 Z0.4 F5000.0 ; move to side a little
 G1 X2 Y20 Z0.4 F1500.0 E30 ; draw 2nd line
 G92 E0 ; reset extruder
 G1 Z1.0 F3000 ; move z up little to prevent scratching of surface
G92 E0
G92 E0
G1 F2400 E-1
;LAYER_COUNT:46
;LAYER:0
M107
G1 F240 Z0.36
;MESH:???????????????_??????.stl
G0 F6000 X55.27 Y113.23 Z0.36
;TYPE:WALL-OUTER
G1 F240 Z0.12
G1 F2400 E0
G1 F1200 X124.73 Y113.23 E1.52476
G1 X124.73 Y66.77 E2.54464
G1 X55.27 Y66.77 E4.0694
G1 X55.27 Y113.23 E5.08928
G0 F6000 X55.71 Y112.79
;TYPE:WALL-INNER
G1 F1200 X124.29 Y112.79 E6.59473
G1 X124.29 Y67.21 E7.59528
G1 X55.71 Y67.21 E9.10073
G1 X55.71 Y112.79 E10.10129
G0 F6000 X56.15 Y112.35
G1 F1200 X123.85 Y112.35 E11.58742
G1 X123.85 Y67.65 E12.56866
G1 X56.15 Y67.65 E14.05479
G1 X56.15 Y112.35 E15.03603
G0 F6000 X56.546 Y111.954
;TYPE:SKIN
G1 F1200 X123.454 Y111.954 E16.50477
G1 X123.454 Y68.046 E17.46863
G1 X56.546 Y68.046 E18.93737
G1 X56.546 Y111.954 E19.90123
G0 F6000 X56.765 Y111.524
G1 F1200 X56.975 Y111.733 E19.90773
G0 F6000 X57.597 Y111.733
G1 F1200 X56.765 Y110.901 E19.93356
G0 F6000 X56.765 Y110.279
G1 F1200 X58.219 Y111.733 E19.9787
G0 F6000 X58.841 Y111.733
G1 F1200 X56.765 Y109.657 E20.04315
G0 F6000 X56.765 Y109.035
G1 F1200 X59.464 Y111.733 E20.12692
G0 F6000 X60.086 Y111.733
G1 F1200 X56.765 Y108.412 E20.23002
G0 F6000 X56.765 Y107.79
G1 F1200 X60.708 Y111.733 E20.35242
G0 F6000 X61.33 Y111.733
G1 F1200 X56.765 Y107.168 E20.49414
G0 F6000 X56.765 Y106.546
G1 F1200 X61.953 Y111.733 E20.65519
G0 F6000 X62.575 Y111.733
G1 F1200 X56.765 Y105.923 E20.83555
G0 F6000 X56.765 Y105.301
G1 F1200 X63.197 Y111.733 E21.03523
G0 F6000 X63.819 Y111.733
G1 F1200 X56.765 Y104.679 E21.25422
G0 F6000 X56.765 Y104.057
G1 F1200 X64.442 Y111.733 E21.49253
G0 F6000 X65.064 Y111.733
G1 F1200 X56.765 Y103.434 E21.75017
G0 F6000 X56.765 Y102.812
G1 F1200 X65.686 Y111.733 E22.02711
G0 F6000 X66.308 Y111.733
G1 F1200 X56.765 Y102.19 E22.32337
G0 F6000 X56.765 Y101.568
G1 F1200 X66.931 Y111.733 E22.63895
G0 F6000 X67.553 Y111.733
G1 F1200 X56.765 Y100.945 E22.97386
G0 F6000 X56.765 Y100.323
G1 F1200 X68.175 Y111.733 E23.32807
G0 F6000 X68.797 Y111.733
G1 F1200 X56.765 Y99.701 E23.7016
G0 F6000 X56.765 Y99.079
G1 F1200 X69.42 Y111.733 E24.09445
G0 F6000 X70.042 Y111.733
G1 F1200 X56.765 Y98.456 E24.50663
G0 F6000 X56.765 Y97.834
G1 F1200 X70.664 Y111.733 E24.93811
G0 F6000 X71.286 Y111.733
G1 F1200 X56.765 Y97.212 E25.38891
G0 F6000 X56.765 Y96.59
G1 F1200 X71.909 Y111.733 E25.85903
G0 F6000 X72.531 Y111.733
G1 F1200 X56.765 Y95.967 E26.34848
G0 F6000 X56.765 Y95.345
G1 F1200 X73.153 Y111.733 E26.85723
G0 F6000 X73.775 Y111.733
G1 F1200 X56.765 Y94.723 E27.3853
G0 F6000 X56.765 Y94.101
G1 F1200 X74.398 Y111.733 E27.93269
G0 F6000 X75.02 Y111.733
G1 F1200 X56.765 Y93.478 E28.4994
G0 F6000 X56.765 Y92.856
G1 F1200 X75.642 Y111.733 E29.08543
G0 F6000 X76.265 Y111.733
G1 F1200 X56.765 Y92.234 E29.69077
G0 F6000 X56.765 Y91.612
G1 F1200 X76.887 Y111.733 E30.31543
G0 F6000 X77.509 Y111.733
G1 F1200 X56.765 Y90.989 E30.95942
G0 F6000 X56.765 Y90.367
G1 F1200 X78.131 Y111.733 E31.62271
G0 F6000 X78.754 Y111.733
G1 F1200 X56.765 Y89.745 E32.30533
G0 F6000 X56.765 Y89.123
G1 F1200 X79.376 Y111.733 E33.00726
G0 F6000 X79.998 Y111.733
G1 F1200 X56.765 Y88.5 E33.72852
G0 F6000 X56.765 Y87.878
G1 F1200 X80.62 Y111.733 E34.46908
G0 F6000 X81.243 Y111.733
G1 F1200 X56.765 Y87.256 E35.22897
G0 F6000 X56.765 Y86.634
G1 F1200 X81.865 Y111.733 E36.00817
G0 F6000 X82.487 Y111.733
G1 F1200 X56.765 Y86.011 E36.80669
G0 F6000 X56.765 Y85.389
G1 F1200 X83.109 Y111.733 E37.62452
G0 F6000 X83.732 Y111.733
G1 F1200 X56.765 Y84.767 E38.46168
G0 F6000 X56.765 Y84.144
G1 F1200 X84.354 Y111.733 E39.31816
G0 F6000 X84.976 Y111.733
G1 F1200 X56.765 Y83.522 E40.19396
G0 F6000 X56.765 Y82.9
G1 F1200 X85.598 Y111.733 E41.08906
G0 F6000 X86.221 Y111.733
G1 F1200 X56.765 Y82.278 E42.00349
G0 F6000 X56.765 Y81.655
G1 F1200 X86.843 Y111.733 E42.93724
G0 F6000 X87.465 Y111.733
G1 F1200 X56.765 Y81.033 E43.8903
G0 F6000 X56.765 Y80.411
G1 F1200 X88.087 Y111.733 E44.86267
G0 F6000 X88.71 Y111.733
G1 F1200 X56.765 Y79.789 E45.85437
G0 F6000 X56.765 Y79.166
G1 F1200 X89.332 Y111.733 E46.86539
G0 F6000 X89.954 Y111.733
G1 F1200 X56.765 Y78.544 E47.89573
G0 F6000 X56.765 Y77.922
G1 F1200 X90.576 Y111.733 E48.94537
G0 F6000 X91.199 Y111.733
G1 F1200 X56.765 Y77.3 E50.01433
G0 F6000 X56.765 Y76.677
G1 F1200 X91.821 Y111.733 E51.10262
G0 F6000 X92.443 Y111.733
G1 F1200 X56.765 Y76.055 E52.21023
G0 F6000 X56.765 Y75.433
G1 F1200 X93.065 Y111.733 E53.33714
G0 F6000 X93.688 Y111.733
G1 F1200 X56.765 Y74.811 E54.48337
G0 F6000 X56.765 Y74.188
G1 F1200 X94.31 Y111.733 E55.64893
G0 F6000 X94.932 Y111.733
G1 F1200 X56.765 Y73.566 E56.8338
G0 F6000 X56.765 Y72.944
G1 F1200 X95.554 Y111.733 E58.03798
G0 F6000 X96.177 Y111.733
G1 F1200 X56.765 Y72.322 E59.26149
G0 F6000 X56.765 Y71.699
G1 F1200 X96.799 Y111.733 E60.50432
G0 F6000 X97.421 Y111.733
G1 F1200 X56.765 Y71.077 E61.76646
G0 F6000 X56.765 Y70.455
G1 F1200 X98.043 Y111.733 E63.04791
G0 F6000 X98.666 Y111.733
G1 F1200 X56.765 Y69.833 E64.34869
G0 F6000 X56.765 Y69.21
G1 F1200 X99.288 Y111.733 E65.66879
G0 F6000 X99.91 Y111.733
G1 F1200 X56.765 Y68.588 E67.0082
G0 F6000 X57.064 Y68.265
G1 F1200 X100.532 Y111.733 E68.35763
G0 F6000 X101.155 Y111.733
G1 F1200 X57.687 Y68.265 E69.70707
G0 F6000 X58.309 Y68.265
G1 F1200 X101.777 Y111.733 E71.05651
G0 F6000 X102.399 Y111.733
G1 F1200 X58.931 Y68.265 E72.40594
G0 F6000 X59.553 Y68.265
G1 F1200 X103.021 Y111.733 E73.75538
G0 F6000 X103.644 Y111.733
G1 F1200 X60.176 Y68.265 E75.10482
G0 F6000 X60.798 Y68.265
G1 F1200 X104.266 Y111.733 E76.45425
G0 F6000 X104.888 Y111.733
G1 F1200 X61.42 Y68.265 E77.80369
G0 F6000 X62.042 Y68.265
G1 F1200 X105.51 Y111.733 E79.15313
G0 F6000 X106.133 Y111.733
G1 F1200 X62.665 Y68.265 E80.50257
G0 F6000 X63.287 Y68.265
G1 F1200 X106.755 Y111.733 E81.852
G0 F6000 X107.377 Y111.733
G1 F1200 X63.909 Y68.265 E83.20144
G0 F6000 X64.531 Y68.265
G1 F1200 X107.999 Y111.733 E84.55088
G0 F6000 X108.622 Y111.733
G1 F1200 X65.154 Y68.265 E85.90031
G0 F6000 X65.776 Y68.265
G1 F1200 X109.244 Y111.733 E87.24975
G0 F6000 X109.866 Y111.733
G1 F1200 X66.398 Y68.265 E88.59919
G0 F6000 X67.02 Y68.265
G1 F1200 X110.488 Y111.733 E89.94862
G0 F6000 X111.111 Y111.733
G1 F1200 X67.643 Y68.265 E91.29806
G0 F6000 X68.265 Y68.265
G1 F1200 X111.733 Y111.733 E92.6475
G0 F6000 X112.355 Y111.733
G1 F1200 X68.887 Y68.265 E93.99693
G0 F6000 X69.51 Y68.265
G1 F1200 X112.977 Y111.733 E95.34636
G0 F6000 X113.6 Y111.733
G1 F1200 X70.132 Y68.265 E96.69579
G0 F6000 X70.754 Y68.265
G1 F1200 X114.222 Y111.733 E98.04523
G0 F6000 X114.844 Y111.733
G1 F1200 X71.376 Y68.265 E99.39467
G0 F6000 X71.999 Y68.265
G1 F1200 X115.467 Y111.733 E100.7441
G0 F6000 X116.089 Y111.733
G1 F1200 X72.621 Y68.265 E102.09354
G0 F6000 X73.243 Y68.265
G1 F1200 X116.711 Y111.733 E103.44298
G0 F6000 X117.333 Y111.733
G1 F1200 X73.865 Y68.265 E104.79241
G0 F6000 X74.488 Y68.265
G1 F1200 X117.956 Y111.733 E106.14185
G0 F6000 X118.578 Y111.733
G1 F1200 X75.11 Y68.265 E107.49129
G0 F6000 X75.732 Y68.265
G1 F1200 X119.2 Y111.733 E108.84073
G0 F6000 X119.822 Y111.733
G1 F1200 X76.354 Y68.265 E110.19016
G0 F6000 X76.977 Y68.265
G1 F1200 X120.445 Y111.733 E111.5396
G0 F6000 X121.067 Y111.733
G1 F1200 X77.599 Y68.265 E112.88904
G0 F6000 X78.221 Y68.265
G1 F1200 X121.689 Y111.733 E114.23847
G0 F6000 X122.311 Y111.733
G1 F1200 X78.843 Y68.265 E115.58791
G0 F6000 X79.466 Y68.265
G1 F1200 X122.934 Y111.733 E116.93735
G0 F6000 X123.233 Y111.41
G1 F1200 X80.088 Y68.265 E118.27676
G0 F6000 X80.71 Y68.265
G1 F1200 X123.233 Y110.788 E119.59686
G0 F6000 X123.233 Y110.165
G1 F1200 X81.332 Y68.265 E120.89763
G0 F6000 X81.955 Y68.265
G1 F1200 X123.233 Y109.543 E122.17908
G0 F6000 X123.233 Y108.921
G1 F1200 X82.577 Y68.265 E123.44122
G0 F6000 X83.199 Y68.265
G1 F1200 X123.233 Y108.299 E124.68405
G0 F6000 X123.233 Y107.676
G1 F1200 X83.821 Y68.265 E125.90756
G0 F6000 X84.444 Y68.265
G1 F1200 X123.233 Y107.054 E127.11174
G0 F6000 X123.233 Y106.432
G1 F1200 X85.066 Y68.265 E128.29661
G0 F6000 X85.688 Y68.265
G1 F1200 X123.233 Y105.81 E129.46217
G0 F6000 X123.233 Y105.187
G1 F1200 X86.31 Y68.265 E130.60841
G0 F6000 X86.933 Y68.265
G1 F1200 X123.233 Y104.565 E131.73532
G0 F6000 X123.233 Y103.943
G1 F1200 X87.555 Y68.265 E132.84292
G0 F6000 X88.177 Y68.265
G1 F1200 X123.233 Y103.321 E133.93121
G0 F6000 X123.233 Y102.698
G1 F1200 X88.799 Y68.265 E135.00018
G0 F6000 X89.422 Y68.265
G1 F1200 X123.233 Y102.076 E136.04982
G0 F6000 X123.233 Y101.454
G1 F1200 X90.044 Y68.265 E137.08015
G0 F6000 X90.666 Y68.265
G1 F1200 X123.233 Y100.832 E138.09117
G0 F6000 X123.233 Y100.209
G1 F1200 X91.288 Y68.265 E139.08287
G0 F6000 X91.911 Y68.265
G1 F1200 X123.233 Y99.587 E140.05524
G0 F6000 X123.233 Y98.965
G1 F1200 X92.533 Y68.265 E141.0083
G0 F6000 X93.155 Y68.265
G1 F1200 X123.233 Y98.342 E141.94204
G0 F6000 X123.233 Y97.72
G1 F1200 X93.777 Y68.265 E142.85647
G0 F6000 X94.4 Y68.265
G1 F1200 X123.233 Y97.098 E143.75157
G0 F6000 X123.233 Y96.476
G1 F1200 X95.022 Y68.265 E144.62736
G0 F6000 X95.644 Y68.265
G1 F1200 X123.233 Y95.853 E145.48383
G0 F6000 X123.233 Y95.231
G1 F1200 X96.266 Y68.265 E146.32099
G0 F6000 X96.889 Y68.265
G1 F1200 X123.233 Y94.609 E147.13882
G0 F6000 X123.233 Y93.987
G1 F1200 X97.511 Y68.265 E147.93735
G0 F6000 X98.133 Y68.265
G1 F1200 X123.233 Y93.364 E148.71654
G0 F6000 X123.233 Y92.742
G1 F1200 X98.755 Y68.265 E149.47643
G0 F6000 X99.378 Y68.265
G1 F1200 X123.233 Y92.12 E150.217
G0 F6000 X123.233 Y91.498
G1 F1200 X100 Y68.265 E150.93825
G0 F6000 X100.622 Y68.265
G1 F1200 X123.233 Y90.875 E151.64018
G0 F6000 X123.233 Y90.253
G1 F1200 X101.244 Y68.265 E152.3228
G0 F6000 X101.867 Y68.265
G1 F1200 X123.233 Y89.631 E152.98609
G0 F6000 X123.233 Y89.009
G1 F1200 X102.489 Y68.265 E153.63008
G0 F6000 X103.111 Y68.265
G1 F1200 X123.233 Y88.386 E154.25474
G0 F6000 X123.233 Y87.764
G1 F1200 X103.733 Y68.265 E154.86009
G0 F6000 X104.356 Y68.265
G1 F1200 X123.233 Y87.142 E155.44611
G0 F6000 X123.233 Y86.52
G1 F1200 X104.978 Y68.265 E156.01283
G0 F6000 X105.6 Y68.265
G1 F1200 X123.233 Y85.897 E156.56022
G0 F6000 X123.233 Y85.275
G1 F1200 X106.222 Y68.265 E157.0883
G0 F6000 X106.845 Y68.265
G1 F1200 X123.233 Y84.653 E157.59705
G0 F6000 X123.233 Y84.031
G1 F1200 X107.467 Y68.265 E158.0865
G0 F6000 X108.089 Y68.265
G1 F1200 X123.233 Y83.408 E158.55662
G0 F6000 X123.233 Y82.786
G1 F1200 X108.712 Y68.265 E159.00741
G0 F6000 X109.334 Y68.265
G1 F1200 X123.233 Y82.164 E159.4389
G0 F6000 X123.233 Y81.542
G1 F1200 X109.956 Y68.265 E159.85108
G0 F6000 X110.578 Y68.265
G1 F1200 X123.233 Y80.919 E160.24393
G0 F6000 X123.233 Y80.297
G1 F1200 X111.201 Y68.265 E160.61745
G0 F6000 X111.823 Y68.265
G1 F1200 X123.233 Y79.675 E160.97167
G0 F6000 X123.233 Y79.053
G1 F1200 X112.445 Y68.265 E161.30658
G0 F6000 X113.067 Y68.265
G1 F1200 X123.233 Y78.43 E161.62216
G0 F6000 X123.233 Y77.808
G1 F1200 X113.69 Y68.265 E161.91841
G0 F6000 X114.312 Y68.265
G1 F1200 X123.233 Y77.186 E162.19536
G0 F6000 X123.233 Y76.564
G1 F1200 X114.934 Y68.265 E162.453
G0 F6000 X115.556 Y68.265
G1 F1200 X123.233 Y75.941 E162.69131
G0 F6000 X123.233 Y75.319
G1 F1200 X116.179 Y68.265 E162.9103
G0 F6000 X116.801 Y68.265
G1 F1200 X123.233 Y74.697 E163.10997
G0 F6000 X123.233 Y74.075
G1 F1200 X117.423 Y68.265 E163.29034
G0 F6000 X118.045 Y68.265
G1 F1200 X123.233 Y73.452 E163.45139
G0 F6000 X123.233 Y72.83
G1 F1200 X118.668 Y68.265 E163.5931
G0 F6000 X119.29 Y68.265
G1 F1200 X123.233 Y72.208 E163.71551
G0 F6000 X123.233 Y71.586
G1 F1200 X119.912 Y68.265 E163.81861
G0 F6000 X120.534 Y68.265
G1 F1200 X123.233 Y70.963 E163.90238
G0 F6000 X123.233 Y70.341
G1 F1200 X121.157 Y68.265 E163.96683
G0 F6000 X121.779 Y68.265
G1 F1200 X123.233 Y69.719 E164.01197
G0 F6000 X123.233 Y69.097
G1 F1200 X122.401 Y68.265 E164.0378
G0 F6000 X123.023 Y68.265
G1 F1200 X123.233 Y68.474 E164.0443
G1 F2400 E163.0443
G1 F240 Z0.36
;MESH:NONMESH
G0 F6000 X55.22 Y113.28 Z0.36
;TIME_ELAPSED:392.865042
;LAYER:1
M106 S85
;MESH:???????????????_??????.stl
G0 F7500 X55.22 Y113.28 Z0.48
;TYPE:WALL-OUTER
G1 F240 Z0.24
G1 F2400 E164.0443
G1 F1500 X124.78 Y113.28 E165.57126
G1 X124.78 Y66.72 E166.59333
G1 X55.22 Y66.72 E168.12029
G1 X55.22 Y113.28 E169.14236
G0 F7500 X55.66 Y112.84
;TYPE:WALL-INNER
G1 F1500 X124.34 Y112.84 E170.65
G1 X124.34 Y67.16 E171.65276
G1 X55.66 Y67.16 E173.1604
G1 X55.66 Y112.84 E174.16315
G0 F7500 X56.1 Y112.4
G1 F1500 X123.9 Y112.4 E175.65148
G1 X123.9 Y67.6 E176.63491
G1 X56.1 Y67.6 E178.12324
G1 X56.1 Y112.4 E179.10667
G0 F7500 X56.496 Y112.004
;TYPE:SKIN
G1 F1500 X123.504 Y112.004 E180.57761
G1 X123.504 Y67.996 E181.54366
G1 X56.496 Y67.996 E183.0146
G1 X56.496 Y112.004 E183.98065
G1 F2400 E182.98065
G1 F240 Z0.48
G0 F7500 X56.716 Y68.356 Z0.48
G1 F240 Z0.24
G1 F2400 E183.98065
G1 F1500 X56.857 Y68.215 E183.98503
G0 F7500 X57.48 Y68.215
G1 F1500 X56.716 Y68.978 E184.00873
G0 F7500 X56.716 Y69.601
G1 F1500 X58.102 Y68.215 E184.05176
G0 F7500 X58.724 Y68.215
G1 F1500 X56.716 Y70.223 E184.11409
G0 F7500 X56.716 Y70.845
G1 F1500 X59.346 Y68.215 E184.19574
G0 F7500 X59.969 Y68.215
G1 F1500 X56.716 Y71.467 E184.29671
G0 F7500 X56.716 Y72.09
G1 F1500 X60.591 Y68.215 E184.41701
G0 F7500 X61.213 Y68.215
G1 F1500 X56.716 Y72.712 E184.55662
G0 F7500 X56.716 Y73.334
G1 F1500 X61.835 Y68.215 E184.71553
G0 F7500 X62.458 Y68.215
G1 F1500 X56.716 Y73.957 E184.89379
G0 F7500 X56.716 Y74.579
G1 F1500 X63.08 Y68.215 E185.09136
G0 F7500 X63.702 Y68.215
G1 F1500 X56.716 Y75.201 E185.30823
G0 F7500 X56.716 Y75.823
G1 F1500 X64.324 Y68.215 E185.54442
G0 F7500 X64.947 Y68.215
G1 F1500 X56.716 Y76.446 E185.79994
G0 F7500 X56.716 Y77.068
G1 F1500 X65.569 Y68.215 E186.07478
G0 F7500 X66.191 Y68.215
G1 F1500 X56.716 Y77.69 E186.36892
G0 F7500 X56.716 Y78.312
G1 F1500 X66.813 Y68.215 E186.68238
G0 F7500 X67.436 Y68.215
G1 F1500 X56.716 Y78.935 E187.01518
G0 F7500 X56.716 Y79.557
G1 F1500 X68.058 Y68.215 E187.36728
G0 F7500 X68.68 Y68.215
G1 F1500 X56.716 Y80.179 E187.7387
G0 F7500 X56.716 Y80.801
G1 F1500 X69.302 Y68.215 E188.12942
G0 F7500 X69.925 Y68.215
G1 F1500 X56.716 Y81.424 E188.53949
G0 F7500 X56.716 Y82.046
G1 F1500 X70.547 Y68.215 E188.96886
G0 F7500 X71.169 Y68.215
G1 F1500 X56.716 Y82.668 E189.41754
G0 F7500 X56.716 Y83.29
G1 F1500 X71.791 Y68.215 E189.88554
G0 F7500 X72.414 Y68.215
G1 F1500 X56.716 Y83.913 E190.37287
G0 F7500 X56.716 Y84.535
G1 F1500 X73.036 Y68.215 E190.87952
G0 F7500 X73.658 Y68.215
G1 F1500 X56.716 Y85.157 E191.40547
G0 F7500 X56.716 Y85.779
G1 F1500 X74.28 Y68.215 E191.95073
G0 F7500 X74.903 Y68.215
G1 F1500 X56.716 Y86.402 E192.51534
G0 F7500 X56.716 Y87.024
G1 F1500 X75.525 Y68.215 E193.09925
G0 F7500 X76.147 Y68.215
G1 F1500 X56.716 Y87.646 E193.70248
G0 F7500 X56.716 Y88.268
G1 F1500 X76.769 Y68.215 E194.32501
G0 F7500 X77.392 Y68.215
G1 F1500 X56.716 Y88.891 E194.96688
G0 F7500 X56.716 Y89.513
G1 F1500 X78.014 Y68.215 E195.62807
G0 F7500 X78.636 Y68.215
G1 F1500 X56.716 Y90.135 E196.30856
G0 F7500 X56.716 Y90.757
G1 F1500 X79.258 Y68.215 E197.00836
G0 F7500 X79.881 Y68.215
G1 F1500 X56.716 Y91.38 E197.7275
G0 F7500 X56.716 Y92.002
G1 F1500 X80.503 Y68.215 E198.46596
G0 F7500 X81.125 Y68.215
G1 F1500 X56.716 Y92.624 E199.22372
G0 F7500 X56.716 Y93.246
G1 F1500 X81.747 Y68.215 E200.00079
G0 F7500 X82.37 Y68.215
G1 F1500 X56.716 Y93.869 E200.7972
G0 F7500 X56.716 Y94.491
G1 F1500 X82.992 Y68.215 E201.61292
G0 F7500 X83.614 Y68.215
G1 F1500 X56.716 Y95.113 E202.44796
G0 F7500 X56.716 Y95.735
G1 F1500 X84.236 Y68.215 E203.3023
