;FLAVOR:Marlin
;TIME:4092
;Filament used: 2.23596m
;Layer height: 0.12
;MINX:55.22
;MINY:70.194
;MINZ:0.12
;MAXX:124.78
;MAXY:109.807
;MAXZ:5.76
;Generated with Cura_SteamEngine 5.0.0
M140 S60
M105
M190 S60
M104 S200
M105
M109 S200
M82 ;absolute extrusion mode
G28 ; home all axes
 M117 Purge extruder
 G92 E0 ; reset extruder
 G1 Z1.0 F3000 ; move z up little to prevent scratching of surface
 G1 X2 Y20 Z0.3 F5000.0 ; move to start-line position
 G1 X2 Y175.0 Z0.3 F1500.0 E15 ; draw 1st line
 G1 X2 Y175.0 Z0.4 F5000.0 ; move to side a little
 G1 X2 Y20 Z0.4 F1500.0 E30 ; draw 2nd line
 G92 E0 ; reset extruder
 G1 Z1.0 F3000 ; move z up little to prevent scratching of surface
G92 E0
G92 E0
G1 F2400 E-1
;LAYER_COUNT:46
;LAYER:0
M107
G1 F240 Z0.36
G0 F6000 X88.749 Y89.652 Z0.36
G0 X88.573 Y90.041
;TYPE:SKIRT
G1 F240 Z0.12
G1 F2400 E0
G1 F1200 X88.574 Y89.959 E0.0018
G1 X88.582 Y89.91 E0.00289
G1 X88.627 Y89.779 E0.00593
G1 X88.749 Y89.652 E0.0098
G1 X88.851 Y89.598 E0.01233
G1 X88.901 Y89.583 E0.01348
G1 X89.023 Y89.573 E0.01616
G1 X89.116 Y89.588 E0.01823
G1 X89.197 Y89.62 E0.02014
G1 X89.265 Y89.663 E0.02191
G1 X89.38 Y89.788 E0.02564
G1 X89.427 Y89.955 E0.02945
G1 X89.426 Y90.047 E0.03147
G1 X89.41 Y90.123 E0.03317
G1 X89.356 Y90.237 E0.03594
G1 X89.292 Y90.313 E0.03812
G1 X89.208 Y90.375 E0.04041
G1 X89.138 Y90.405 E0.04208
G1 X88.993 Y90.435 E0.04533
G1 X88.815 Y90.387 E0.04938
G1 X88.753 Y90.351 E0.05096
G1 X88.685 Y90.291 E0.05295
G1 X88.633 Y90.221 E0.05486
G1 X88.591 Y90.125 E0.05716
G1 X88.573 Y90.041 E0.05905
G0 F6000 X88.133 Y89.94
G1 F1200 X88.156 Y89.798 E0.0622
G1 X88.24 Y89.548 E0.06799
G1 X88.459 Y89.321 E0.07492
G1 X88.584 Y89.237 E0.07822
G1 X88.731 Y89.174 E0.08173
G1 X88.852 Y89.145 E0.08447
G1 X89.022 Y89.132 E0.08821
G1 X89.11 Y89.138 E0.09014
G1 X89.266 Y89.173 E0.09365
G1 X89.412 Y89.236 E0.09714
G1 X89.522 Y89.305 E0.09999
G1 X89.598 Y89.371 E0.1022
G1 X89.772 Y89.569 E0.10799
G1 X89.859 Y89.869 E0.11485
G1 X89.868 Y90.033 E0.11845
G1 X89.849 Y90.188 E0.12188
G1 X89.826 Y90.271 E0.12377
G1 X89.723 Y90.481 E0.12891
G1 X89.664 Y90.561 E0.13109
G1 X89.554 Y90.668 E0.13446
G1 X89.412 Y90.765 E0.13823
G1 X89.256 Y90.83 E0.14194
G1 X88.985 Y90.885 E0.14801
G1 X88.683 Y90.809 E0.15485
G1 X88.519 Y90.725 E0.15889
G1 X88.384 Y90.614 E0.16273
G1 X88.263 Y90.461 E0.16701
G1 X88.208 Y90.355 E0.16963
G1 X88.158 Y90.213 E0.17294
G1 X88.135 Y90.079 E0.17592
G1 X88.133 Y89.94 E0.17897
G0 F6000 X87.692 Y89.944
G1 F1200 X87.717 Y89.742 E0.18344
G1 X87.733 Y89.676 E0.18493
G1 X87.854 Y89.317 E0.19325
G1 X88.143 Y89.012 E0.20247
G1 X88.289 Y88.901 E0.2065
G1 X88.468 Y88.804 E0.21097
G1 X88.638 Y88.743 E0.21493
G1 X88.798 Y88.708 E0.21853
G1 X89.03 Y88.692 E0.22363
G1 X89.194 Y88.705 E0.22724
G1 X89.387 Y88.75 E0.23159
G1 X89.581 Y88.828 E0.23618
G1 X89.743 Y88.923 E0.24031
G1 X89.907 Y89.056 E0.24494
G1 X90.166 Y89.351 E0.25356
G1 X90.282 Y89.739 E0.26245
G1 X90.306 Y89.909 E0.26622
G1 X90.302 Y90.135 E0.27118
G1 X90.272 Y90.311 E0.2751
G1 X90.234 Y90.439 E0.27803
G1 X90.127 Y90.664 E0.2835
G1 X90.023 Y90.817 E0.28756
G1 X89.874 Y90.974 E0.29231
G1 X89.736 Y91.081 E0.29614
G1 X89.564 Y91.181 E0.30051
G1 X89.388 Y91.25 E0.30466
G1 X88.978 Y91.335 E0.31385
G1 X88.557 Y91.232 E0.32337
G1 X88.4 Y91.163 E0.32713
G1 X88.255 Y91.077 E0.33083
G1 X88.14 Y90.987 E0.33404
G1 X88.02 Y90.867 E0.33776
G1 X87.891 Y90.695 E0.34248
G1 X87.805 Y90.533 E0.34651
G1 X87.737 Y90.34 E0.351
G1 X87.7 Y90.156 E0.35512
G1 X87.692 Y89.944 E0.35978
G0 F6000 X87.252 Y90.042
G1 F1200 X87.257 Y89.862 E0.36373
G1 X87.28 Y89.684 E0.36767
G1 X87.31 Y89.552 E0.37064
G1 X87.467 Y89.085 E0.38146
G1 X87.855 Y88.679 E0.39379
G1 X87.97 Y88.587 E0.39702
G1 X88.117 Y88.49 E0.40089
G1 X88.346 Y88.377 E0.40649
G1 X88.499 Y88.325 E0.41004
G1 X88.676 Y88.282 E0.41404
G1 X88.961 Y88.253 E0.42033
G1 X89.193 Y88.261 E0.42542
G1 X89.365 Y88.29 E0.42925
G1 X89.513 Y88.328 E0.4326
G1 X89.696 Y88.397 E0.4369
G1 X89.839 Y88.466 E0.44038
G1 X89.996 Y88.562 E0.44442
G1 X90.199 Y88.727 E0.45017
G1 X90.558 Y89.13 E0.46201
G1 X90.711 Y89.639 E0.47368
G1 X90.74 Y89.813 E0.47755
G1 X90.748 Y89.975 E0.48111
G1 X90.741 Y90.174 E0.48548
G1 X90.701 Y90.409 E0.49072
G1 X90.636 Y90.618 E0.49552
G1 X90.51 Y90.882 E0.50194
G1 X90.365 Y91.094 E0.50758
G1 X90.222 Y91.25 E0.51223
G1 X90.041 Y91.405 E0.51746
G1 X89.834 Y91.537 E0.52285
G1 X89.651 Y91.623 E0.52729
G1 X89.453 Y91.689 E0.53187
G1 X88.975 Y91.785 E0.54257
G1 X88.531 Y91.683 E0.55257
G1 X88.358 Y91.628 E0.55655
G1 X88.227 Y91.568 E0.55972
G1 X88.008 Y91.442 E0.56526
G1 X87.84 Y91.309 E0.56997
G1 X87.727 Y91.2 E0.57341
G1 X87.626 Y91.082 E0.57682
G1 X87.532 Y90.952 E0.58035
G1 X87.478 Y90.862 E0.58265
G1 X87.393 Y90.689 E0.58688
G1 X87.315 Y90.469 E0.592
G1 X87.264 Y90.222 E0.59754
G1 X87.252 Y90.042 E0.6015
G0 F6000 X86.812 Y89.924
G1 F1200 X86.828 Y89.738 E0.6056
G1 X86.871 Y89.496 E0.61099
G1 X86.891 Y89.418 E0.61276
G1 X87.081 Y88.854 E0.62583
G1 X87.547 Y88.364 E0.64067
G1 X87.714 Y88.229 E0.64538
G1 X87.896 Y88.109 E0.65017
G1 X88.082 Y88.013 E0.65476
G1 X88.307 Y87.923 E0.66008
G1 X88.499 Y87.869 E0.66446
G1 X88.689 Y87.834 E0.6687
G1 X89.024 Y87.812 E0.67607
G1 X89.246 Y87.824 E0.68095
G1 X89.457 Y87.86 E0.68565
G1 X89.657 Y87.912 E0.69019
G1 X89.843 Y87.981 E0.69454
G1 X90.061 Y88.086 E0.69986
G1 X90.249 Y88.202 E0.7047
G1 X90.397 Y88.316 E0.70881
G1 X90.556 Y88.461 E0.71353
G1 X90.95 Y88.91 E0.72664
G1 X91.118 Y89.452 E0.7391
G1 X91.165 Y89.672 E0.74404
G1 X91.186 Y89.876 E0.74854
G1 X91.186 Y90.116 E0.75381
G1 X91.168 Y90.309 E0.75806
G1 X91.128 Y90.517 E0.76271
G1 X91.065 Y90.729 E0.76757
G1 X90.916 Y91.057 E0.77547
G1 X90.827 Y91.205 E0.77927
G1 X90.706 Y91.372 E0.78379
G1 X90.549 Y91.545 E0.78892
G1 X90.389 Y91.692 E0.79369
G1 X90.219 Y91.818 E0.79834
G1 X90.026 Y91.934 E0.80328
G1 X89.841 Y92.02 E0.80776
G1 X89.642 Y92.093 E0.81241
G1 X88.968 Y92.235 E0.82753
G1 X88.432 Y92.112 E0.8396
G1 X88.196 Y92.037 E0.84504
G1 X88.014 Y91.953 E0.84944
G1 X87.82 Y91.845 E0.85431
G1 X87.644 Y91.718 E0.85908
G1 X87.485 Y91.58 E0.8637
G1 X87.349 Y91.438 E0.86801
G1 X87.173 Y91.206 E0.87441
G1 X87.038 Y90.97 E0.88038
G1 X86.955 Y90.778 E0.88497
G1 X86.886 Y90.567 E0.88984
G1 X86.838 Y90.342 E0.89489
G1 X86.817 Y90.168 E0.89874
G1 X86.812 Y89.924 E0.9041
G0 F6000 X86.371 Y90.053
G1 F1200 X86.379 Y89.791 E0.90985
G1 X86.417 Y89.515 E0.91597
G1 X86.47 Y89.29 E0.92104
G1 X86.697 Y88.62 E0.93657
G1 X87.251 Y88.038 E0.95421
G1 X87.457 Y87.871 E0.96003
G1 X87.672 Y87.73 E0.96567
G1 X87.893 Y87.615 E0.97114
G1 X88.156 Y87.51 E0.97736
G1 X88.414 Y87.436 E0.98325
G1 X88.644 Y87.396 E0.98837
G1 X88.92 Y87.373 E0.99445
G1 X89.032 Y87.372 E0.99691
G1 X89.299 Y87.388 E1.00278
G1 X89.551 Y87.43 E1.00839
G1 X89.799 Y87.495 E1.01402
G1 X90.034 Y87.585 E1.01954
G1 X90.258 Y87.692 E1.02499
G1 X90.505 Y87.844 E1.03136
G1 X90.683 Y87.981 E1.03629
G1 X90.876 Y88.159 E1.04205
G1 X91.347 Y88.696 E1.05773
G1 X91.542 Y89.332 E1.07234
G1 X91.602 Y89.616 E1.07871
G1 X91.625 Y89.838 E1.08361
G1 X91.626 Y90.134 E1.09011
G1 X91.605 Y90.361 E1.09511
G1 X91.555 Y90.623 E1.10097
G1 X91.485 Y90.862 E1.10643
G1 X91.442 Y90.972 E1.10902
G1 X91.266 Y91.334 E1.11786
G1 X91.097 Y91.585 E1.1245
G1 X90.972 Y91.738 E1.12884
G1 X90.777 Y91.937 E1.13496
G1 X90.57 Y92.109 E1.14086
G1 X90.318 Y92.275 E1.14749
G1 X90.125 Y92.377 E1.15228
G1 X89.86 Y92.484 E1.15855
G1 X89.657 Y92.545 E1.16321
G1 X88.949 Y92.683 E1.17904
G1 X88.317 Y92.537 E1.19328
G1 X88.04 Y92.448 E1.19967
G1 X87.807 Y92.342 E1.20529
G1 X87.562 Y92.202 E1.21148
G1 X87.375 Y92.066 E1.21656
G1 X87.164 Y91.883 E1.22269
G1 X87.009 Y91.717 E1.22767
G1 X86.803 Y91.444 E1.23518
G1 X86.715 Y91.3 E1.23888
G1 X86.594 Y91.058 E1.24482
G1 X86.494 Y90.795 E1.251
G1 X86.432 Y90.562 E1.25629
G1 X86.388 Y90.311 E1.26189
G1 X86.371 Y90.053 E1.26756
G0 F6000 X85.931 Y90.048
G1 F1200 X85.94 Y89.764 E1.2738
G1 X85.982 Y89.446 E1.28084
G1 X86.048 Y89.165 E1.28718
G1 X86.283 Y88.466 E1.30337
G1 X86.299 Y88.389 E1.30509
G1 X86.376 Y88.319 E1.30738
G1 X86.854 Y87.809 E1.32272
G1 X87.074 Y87.61 E1.32923
G1 X87.33 Y87.425 E1.33617
G1 X87.585 Y87.276 E1.34265
G1 X87.86 Y87.15 E1.34929
G1 X88.123 Y87.059 E1.3554
G1 X88.443 Y86.982 E1.36262
G1 X88.577 Y86.961 E1.3656
G1 X88.908 Y86.933 E1.37289
G1 X89.04 Y86.931 E1.37579
G1 X89.352 Y86.951 E1.38265
G1 X89.644 Y87 E1.38915
G1 X89.928 Y87.074 E1.3956
G1 X90.211 Y87.181 E1.40224
G1 X90.496 Y87.321 E1.40921
G1 X90.744 Y87.474 E1.4156
G1 X91 Y87.673 E1.42272
G1 X91.192 Y87.852 E1.42848
G1 X91.683 Y88.411 E1.44482
G1 X91.744 Y88.466 E1.44662
G1 X91.77 Y88.582 E1.44923
G1 X91.964 Y89.209 E1.46364
G1 X92.007 Y89.386 E1.46764
G1 X92.052 Y89.667 E1.47388
G1 X92.068 Y89.994 E1.48107
G1 X92.055 Y90.299 E1.48777
G1 X92.011 Y90.599 E1.49443
G1 X91.936 Y90.896 E1.50115
G1 X91.848 Y91.144 E1.50693
G1 X91.704 Y91.449 E1.51433
G1 X91.56 Y91.694 E1.52057
G1 X91.39 Y91.927 E1.5269
G1 X91.162 Y92.178 E1.53435
G1 X90.953 Y92.368 E1.54055
G1 X90.712 Y92.547 E1.54714
G1 X90.453 Y92.704 E1.55378
G1 X90.182 Y92.832 E1.56036
G1 X89.887 Y92.938 E1.56724
G1 X89.757 Y92.974 E1.57021
G1 X89.03 Y93.121 E1.58649
G1 X88.957 Y93.145 E1.58817
G1 X88.85 Y93.111 E1.59064
G1 X88.202 Y92.961 E1.60524
G1 X87.895 Y92.864 E1.61231
G1 X87.618 Y92.74 E1.61897
G1 X87.343 Y92.584 E1.62591
G1 X87.103 Y92.413 E1.63238
G1 X86.864 Y92.205 E1.63933
G1 X86.669 Y91.995 E1.64562
G1 X86.45 Y91.708 E1.65355
G1 X86.337 Y91.527 E1.65823
G1 X86.193 Y91.239 E1.6653
G1 X86.081 Y90.948 E1.67215
G1 X85.997 Y90.637 E1.67922
G1 X85.951 Y90.355 E1.68549
G1 X85.931 Y90.048 E1.69224
G0 F6000 X85.491 Y90.063
G1 F1200 X85.503 Y89.709 E1.70002
G1 X85.549 Y89.363 E1.70768
G1 X85.624 Y89.045 E1.71485
G1 X85.866 Y88.326 E1.73151
G1 X85.901 Y88.139 E1.73568
G1 X86.055 Y88.018 E1.73998
G1 X86.539 Y87.502 E1.75551
G1 X86.67 Y87.376 E1.7595
G1 X86.955 Y87.148 E1.76751
G1 X87.235 Y86.965 E1.77486
G1 X87.544 Y86.807 E1.78247
G1 X87.703 Y86.738 E1.78628
G1 X88.029 Y86.628 E1.79383
G1 X88.337 Y86.554 E1.80079
G1 X88.534 Y86.522 E1.80517
G1 X88.88 Y86.494 E1.81279
G1 X89.049 Y86.491 E1.8165
G1 X89.384 Y86.511 E1.82386
G1 X89.71 Y86.564 E1.83111
G1 X90.067 Y86.657 E1.83921
G1 X90.376 Y86.773 E1.84646
G1 X90.693 Y86.927 E1.85419
G1 X90.997 Y87.114 E1.86203
G1 X91.258 Y87.315 E1.86926
G1 X91.421 Y87.458 E1.87402
G1 X91.516 Y87.553 E1.87697
G1 X92.014 Y88.121 E1.89355
G1 X92.159 Y88.248 E1.89778
G1 X92.19 Y88.451 E1.90229
G1 X92.391 Y89.099 E1.91718
G1 X92.436 Y89.287 E1.92143
G1 X92.471 Y89.479 E1.92571
G1 X92.504 Y89.789 E1.93256
G1 X92.505 Y90.174 E1.94101
G1 X92.477 Y90.482 E1.9478
G1 X92.408 Y90.844 E1.95589
G1 X92.307 Y91.179 E1.96357
G1 X92.259 Y91.304 E1.96651
G1 X92.087 Y91.666 E1.9753
G1 X91.924 Y91.941 E1.98232
G1 X91.72 Y92.218 E1.98987
G1 X91.472 Y92.49 E1.99795
G1 X91.236 Y92.704 E2.00495
G1 X91.087 Y92.822 E2.00912
G1 X90.793 Y93.016 E2.01685
G1 X90.495 Y93.175 E2.02427
G1 X90.17 Y93.308 E2.03197
G1 X89.857 Y93.402 E2.03915
G1 X89.117 Y93.552 E2.05572
G1 X88.939 Y93.614 E2.05986
G1 X88.751 Y93.54 E2.0643
G1 X88.086 Y93.387 E2.07927
G1 X87.887 Y93.329 E2.08382
G1 X87.564 Y93.203 E2.09144
G1 X87.256 Y93.045 E2.09903
G1 X86.969 Y92.863 E2.10649
G1 X86.687 Y92.64 E2.11439
G1 X86.456 Y92.42 E2.12139
G1 X86.219 Y92.139 E2.12946
G1 X86.045 Y91.894 E2.13606
G1 X85.943 Y91.724 E2.14041
G1 X85.787 Y91.41 E2.1481
G1 X85.664 Y91.088 E2.15567
G1 X85.571 Y90.747 E2.16343
G1 X85.515 Y90.417 E2.17078
G1 X85.491 Y90.063 E2.17857
G0 F6000 X85.051 Y90.086
G1 F1200 X85.064 Y89.674 E2.18761
G1 X85.113 Y89.302 E2.19585
G1 X85.203 Y88.916 E2.20455
G1 X85.449 Y88.185 E2.22148
G1 X85.483 Y87.959 E2.2265
G1 X85.464 Y87.89 E2.22807
G1 X85.734 Y87.717 E2.23511
G1 X86.224 Y87.194 E2.25084
G1 X86.376 Y87.049 E2.25545
G1 X86.511 Y86.934 E2.25935
G1 X86.7 Y86.789 E2.26458
G1 X87.015 Y86.584 E2.27283
G1 X87.357 Y86.409 E2.28126
G1 X87.538 Y86.331 E2.28559
G1 X87.89 Y86.209 E2.29376
G1 X88.26 Y86.121 E2.30211
G1 X88.478 Y86.086 E2.30696
G1 X88.866 Y86.054 E2.3155
G1 X89.035 Y86.051 E2.31922
G1 X89.265 Y86.059 E2.32427
G1 X89.618 Y86.099 E2.33207
G1 X90.013 Y86.183 E2.34093
G1 X90.384 Y86.301 E2.34948
G1 X90.736 Y86.452 E2.35788
G1 X91.087 Y86.647 E2.3667
G1 X91.24 Y86.747 E2.37071
G1 X91.546 Y86.982 E2.37918
G1 X91.72 Y87.135 E2.38427
G1 X91.837 Y87.252 E2.3879
G1 X92.345 Y87.831 E2.40481
G1 X92.523 Y87.975 E2.40983
G1 X92.596 Y87.994 E2.41149
G1 X92.611 Y88.321 E2.41868
G1 X92.815 Y88.98 E2.43382
G1 X92.865 Y89.185 E2.43845
G1 X92.927 Y89.576 E2.44714
G1 X92.943 Y89.777 E2.45157
G1 X92.945 Y90.193 E2.4607
G1 X92.911 Y90.555 E2.46868
G1 X92.838 Y90.937 E2.47722
G1 X92.726 Y91.312 E2.48581
G1 X92.661 Y91.482 E2.4898
G1 X92.483 Y91.86 E2.49898
G1 X92.294 Y92.179 E2.50712
G1 X92.066 Y92.491 E2.5156
G1 X91.775 Y92.809 E2.52506
G1 X91.517 Y93.043 E2.53271
G1 X91.351 Y93.174 E2.53735
G1 X91.207 Y93.275 E2.54121
G1 X90.874 Y93.477 E2.54976
G1 X90.687 Y93.571 E2.55435
G1 X90.307 Y93.728 E2.56338
G1 X89.961 Y93.83 E2.5713
G1 X89.204 Y93.983 E2.58825
G1 X88.991 Y94.067 E2.59328
G1 X88.937 Y94.114 E2.59485
G1 X88.652 Y93.969 E2.60187
G1 X87.987 Y93.816 E2.61685
G1 X87.744 Y93.745 E2.6224
G1 X87.384 Y93.604 E2.63089
G1 X87.032 Y93.425 E2.63956
G1 X86.714 Y93.222 E2.64784
G1 X86.398 Y92.971 E2.6567
G1 X86.135 Y92.72 E2.66468
G1 X85.874 Y92.413 E2.67353
G1 X85.667 Y92.12 E2.6814
G1 X85.566 Y91.951 E2.68572
G1 X85.457 Y91.745 E2.69084
G1 X85.31 Y91.405 E2.69897
G1 X85.188 Y91.032 E2.70759
G1 X85.14 Y90.838 E2.71197
G1 X85.077 Y90.464 E2.7203
G1 X85.051 Y90.086 E2.72862
G0 F6000 X84.611 Y90.083
G1 F1200 X84.613 Y89.851 E2.73371
G1 X84.625 Y89.644 E2.73826
G1 X84.682 Y89.211 E2.74785
G1 X84.779 Y88.797 E2.75718
G1 X85.032 Y88.045 E2.7746
G1 X85.016 Y87.869 E2.77848
G1 X84.801 Y87.478 E2.78827
G1 X85.25 Y87.485 E2.79813
G1 X85.413 Y87.416 E2.80202
G1 X85.904 Y86.892 E2.81778
G1 X86.081 Y86.722 E2.82317
G1 X86.243 Y86.585 E2.82782
G1 X86.432 Y86.439 E2.83307
G1 X86.79 Y86.206 E2.84244
G1 X86.975 Y86.105 E2.84707
G1 X87.364 Y85.926 E2.85647
G1 X87.771 Y85.786 E2.86592
G1 X88.011 Y85.723 E2.87137
G1 X88.423 Y85.648 E2.88056
G1 X88.838 Y85.614 E2.8897
G1 X89.043 Y85.611 E2.8942
G1 X89.285 Y85.619 E2.89951
G1 X89.688 Y85.664 E2.90842
G1 X90.132 Y85.759 E2.91838
G1 X90.322 Y85.814 E2.92273
G1 X90.546 Y85.891 E2.92792
G1 X90.931 Y86.058 E2.93714
G1 X91.126 Y86.16 E2.94197
G1 X91.325 Y86.277 E2.94704
G1 X91.5 Y86.392 E2.95163
G1 X91.686 Y86.528 E2.95669
G1 X92.018 Y86.812 E2.96628
G1 X92.165 Y86.958 E2.97083
G1 X92.676 Y87.541 E2.98785
G1 X92.837 Y87.616 E2.99175
G1 X93.284 Y87.624 E3.00156
G1 X93.052 Y88.013 E3.0115
G1 X93.031 Y88.191 E3.01544
G1 X93.237 Y88.856 E3.03072
G1 X93.298 Y89.107 E3.03639
G1 X93.342 Y89.351 E3.04183
G1 X93.383 Y89.747 E3.05057
G1 X93.385 Y90.209 E3.06071
G1 X93.371 Y90.415 E3.06525
G1 X93.347 Y90.614 E3.06965
G1 X93.265 Y91.044 E3.07925
G1 X93.141 Y91.461 E3.0888
G1 X93.068 Y91.651 E3.09327
G1 X92.872 Y92.065 E3.10333
G1 X92.78 Y92.232 E3.10751
G1 X92.662 Y92.421 E3.1124
G1 X92.406 Y92.77 E3.12191
G1 X92.277 Y92.921 E3.12627
G1 X92.098 Y93.109 E3.13196
G1 X91.799 Y93.381 E3.14084
G1 X91.616 Y93.525 E3.14595
G1 X91.441 Y93.648 E3.15064
G1 X91.081 Y93.865 E3.15987
G1 X90.871 Y93.971 E3.16503
G1 X90.459 Y94.141 E3.17482
G1 X90.073 Y94.256 E3.18366
G1 X89.291 Y94.414 E3.20117
G1 X89.147 Y94.516 E3.20505
G1 X88.915 Y94.9 E3.2149
G1 X88.696 Y94.505 E3.22481
G1 X88.553 Y94.398 E3.22873
G1 X87.872 Y94.241 E3.24407
G1 X87.616 Y94.166 E3.24993
G1 X87.404 Y94.09 E3.25487
G1 X87.204 Y94.006 E3.25963
G1 X86.809 Y93.804 E3.26937
G1 X86.461 Y93.582 E3.27843
G1 X86.282 Y93.447 E3.28335
G1 X86.104 Y93.299 E3.28844
G1 X85.805 Y93.012 E3.29753
G1 X85.666 Y92.856 E3.30212
G1 X85.517 Y92.671 E3.30734
G1 X85.291 Y92.349 E3.31597
G1 X85.18 Y92.162 E3.32074
G1 X85.06 Y91.934 E3.3264
G1 X84.897 Y91.557 E3.33542
G1 X84.825 Y91.353 E3.34017
G1 X84.762 Y91.143 E3.34498
G1 X84.71 Y90.93 E3.34979
G1 X84.639 Y90.508 E3.35919
G1 X84.611 Y90.083 E3.36854
G1 F2400 E2.36854
G1 F240 Z0.36
G0 F6000 X71.573 Y101.971 Z0.36
G1 F240 Z0.12
G1 F2400 E3.36854
G1 F1200 X71.581 Y101.913 E3.36982
