;FLAVOR:Marlin
;TIME:3486
;Filament used: 1.88377m
;Layer height: 0.12
;MINX:55.22
;MINY:70.194
;MINZ:0.12
;MAXX:124.78
;MAXY:109.807
;MAXZ:5.76
;Generated with Cura_SteamEngine 5.0.0
M140 S60
M105
M190 S60
M104 S200
M105
M109 S200
M82 ;absolute extrusion mode
G28 ; home all axes
 M117 Purge extruder
 G92 E0 ; reset extruder
 G1 Z1.0 F3000 ; move z up little to prevent scratching of surface
 G1 X2 Y20 Z0.3 F5000.0 ; move to start-line position
 G1 X2 Y175.0 Z0.3 F1500.0 E15 ; draw 1st line
 G1 X2 Y175.0 Z0.4 F5000.0 ; move to side a little
 G1 X2 Y20 Z0.4 F1500.0 E30 ; draw 2nd line
 G92 E0 ; reset extruder
 G1 Z1.0 F3000 ; move z up little to prevent scratching of surface
G92 E0
G92 E0
G1 F2400 E-1
;LAYER_COUNT:46
;LAYER:0
M107
G1 F240 Z0.36
;MESH:???????????????_??????.stl
G0 F6000 X60.16 Y93.14 Z0.36
;TYPE:WALL-OUTER
G1 F240 Z0.12
G1 F2400 E0
G1 F1200 X56.691 Y93.14 E0.07615
G1 X56.535 Y93.076 E0.07985
G1 X56.485 Y93.026 E0.0814
G1 X56.424 Y92.908 E0.08432
G1 X56.421 Y92.87 E0.08516
G1 X56.421 Y84.13 E0.27701
G1 X56.485 Y83.974 E0.28072
G1 X56.535 Y83.924 E0.28227
G1 X56.691 Y83.86 E0.28597
G1 X60.16 Y83.86 E0.36212
G1 X60.224 Y83.869 E0.36354
G1 X60.271 Y83.889 E0.36466
G1 X60.313 Y83.921 E0.36582
G1 X60.383 Y83.993 E0.36802
G1 X60.41 Y84.037 E0.36916
G1 X60.427 Y84.087 E0.37032
G1 X60.431 Y84.13 E0.37126
G1 X60.429 Y92.895 E0.56367
G1 X60.418 Y92.944 E0.56477
G1 X60.389 Y92.999 E0.56614
G1 X60.316 Y93.076 E0.56847
G1 X60.272 Y93.11 E0.56969
G1 X60.215 Y93.134 E0.57105
G1 X60.16 Y93.14 E0.57226
G0 F6000 X60.16 Y93.58
;TYPE:WALL-INNER
G1 F1200 X56.691 Y93.58 E0.64841
G1 X56.223 Y93.388 E0.65951
G1 X56.173 Y93.338 E0.66107
G1 F1227.9 X56.137 Y93.248 E0.66315
G1 F1287.8 X56.101 Y93.158 E0.66513
G1 F1350.4 X56.065 Y93.068 E0.66702
G1 F1423.2 X56.029 Y92.978 E0.66881
G1 F1474.9 X56.024 Y92.87 E0.67075
G1 F1487.3 X56.024 Y84.13 E0.82554
G1 F1458.6 X56.048 Y84.052 E0.82701
G1 F1404.3 X56.073 Y83.974 E0.82855
G1 F1353.8 X56.098 Y83.896 E0.83014
G1 F1306.9 X56.123 Y83.818 E0.83179
G1 F1263.2 X56.148 Y83.74 E0.8335
G1 F1222.2 X56.173 Y83.662 E0.83527
G1 F1200 X56.223 Y83.612 E0.83682
G1 X56.691 Y83.42 E0.84792
G1 X60.16 Y83.42 E0.92407
G1 X60.264 Y83.428 E0.92636
G1 X60.35 Y83.447 E0.9283
G1 X60.424 Y83.474 E0.93003
G1 X60.511 Y83.52 E0.93219
G1 X60.555 Y83.55 E0.93336
G1 X60.619 Y83.605 E0.93521
G1 X60.707 Y83.695 E0.93797
G1 X60.746 Y83.744 E0.93935
G1 X60.779 Y83.794 E0.94066
G1 X60.81 Y83.853 E0.94212
G1 X60.833 Y83.91 E0.94347
G1 X60.851 Y83.97 E0.94485
G1 X60.863 Y84.029 E0.94617
G1 X60.87 Y84.094 E0.94761
G1 X60.87 Y92.897 E1.14085
G1 X60.864 Y92.962 E1.14228
G1 X60.852 Y93.026 E1.14371
G1 X60.834 Y93.088 E1.14513
G1 X60.797 Y93.174 E1.14718
G1 X60.745 Y93.257 E1.14933
G1 X60.714 Y93.298 E1.15046
G1 X60.627 Y93.387 E1.15319
G1 X60.587 Y93.424 E1.15439
G1 X60.543 Y93.458 E1.15561
G1 X60.495 Y93.489 E1.15686
G1 X60.444 Y93.517 E1.15814
G1 X60.389 Y93.54 E1.15945
G1 X60.325 Y93.56 E1.16092
G1 X60.25 Y93.574 E1.1626
G1 X60.16 Y93.58 E1.16458
G1 F2400 E0.16458
G1 F240 Z0.36
G0 F6000 X55.27 Y109.73 Z0.36
;TYPE:WALL-OUTER
G1 F240 Z0.12
G1 F2400 E1.16458
G1 F1200 X124.73 Y109.73 E2.68934
G1 X124.73 Y70.27 E3.55555
G1 X55.271 Y70.271 E5.0803
G1 X55.27 Y109.73 E5.94649
G0 F6000 X55.71 Y109.29
;TYPE:WALL-INNER
G1 F1200 X124.29 Y109.29 E7.45193
G1 X124.29 Y70.71 E8.29883
G1 X100.989 Y70.71 E8.81033
G1 X55.711 Y70.711 E9.80426
G1 X55.711 Y83.471 E10.08436
G1 F1216.6 X55.706 Y83.553 E10.08614
G1 F1245.3 X55.701 Y83.636 E10.0879
G1 F1278.5 X55.695 Y83.719 E10.08961
G1 F1313.4 X55.69 Y83.802 E10.09128
G1 F1346.9 X55.684 Y83.885 E10.09291
G1 F1385.8 X55.679 Y83.968 E10.09449
G1 F1427 X55.674 Y84.051 E10.09602
G1 F1466.7 X55.668 Y84.133 E10.0975
G1 F1487.3 X55.668 Y92.87 E10.25224
G1 F1474.9 X55.67 Y93.008 E10.2547
G1 F1434.8 X55.676 Y93.094 E10.25629
G1 F1385.8 X55.683 Y93.181 E10.25795
G1 F1340.1 X55.69 Y93.268 E10.25966
G1 F1297.3 X55.697 Y93.355 E10.26143
G1 F1257.1 X55.704 Y93.442 E10.26326
G1 F1219.4 X55.711 Y93.529 E10.26515
G1 F1200 X55.71 Y109.29 E10.61113
G1 F2400 E9.61113
G1 F240 Z0.36
G0 F6000 X76.364 Y85.154 Z0.36
;TYPE:WALL-OUTER
G1 F240 Z0.12
G1 F2400 E10.61113
G1 F1200 X76.083 Y85.127 E10.61733
G1 X75.8 Y85.084 E10.62361
G1 X75.52 Y85.028 E10.62988
G1 X75.248 Y84.959 E10.63604
G1 X74.979 Y84.875 E10.64222
G1 X74.725 Y84.783 E10.64815
G1 X74.457 Y84.67 E10.65454
G1 X74.199 Y84.547 E10.66081
G1 X73.95 Y84.412 E10.66703
G1 X73.713 Y84.267 E10.67313
G1 X73.476 Y84.106 E10.67942
G1 X73.249 Y83.934 E10.68567
G1 X73.038 Y83.757 E10.69172
G1 X72.825 Y83.562 E10.69806
G1 X72.628 Y83.359 E10.70427
G1 X72.439 Y83.145 E10.71053
G1 X72.264 Y82.926 E10.71669
G1 X72.101 Y82.699 E10.72282
G1 X71.947 Y82.464 E10.72899
G1 X71.803 Y82.213 E10.73534
G1 X71.674 Y81.961 E10.74156
G1 X71.558 Y81.704 E10.74775
G1 X71.456 Y81.444 E10.75388
G1 X71.365 Y81.173 E10.76015
G1 X71.288 Y80.901 E10.76636
G1 X71.226 Y80.631 E10.77244
G1 X71.175 Y80.348 E10.77875
G1 X71.141 Y80.071 E10.78488
G1 X71.12 Y79.787 E10.79113
G1 X71.113 Y79.515 E10.7971
G1 X71.12 Y79.221 E10.80356
G1 X71.141 Y78.941 E10.80972
G1 X71.175 Y78.658 E10.81598
G1 X71.225 Y78.379 E10.8222
G1 X71.286 Y78.105 E10.82836
G1 X71.365 Y77.83 E10.83464
G1 X71.454 Y77.569 E10.8407
G1 X71.556 Y77.304 E10.84693
G1 X71.672 Y77.043 E10.8532
G1 X71.801 Y76.79 E10.85943
G1 X71.94 Y76.548 E10.86556
G1 X72.096 Y76.309 E10.87182
G1 X72.262 Y76.077 E10.87809
G1 X72.435 Y75.86 E10.88418
G1 X72.618 Y75.653 E10.89024
G1 X72.82 Y75.443 E10.89664
G1 X73.028 Y75.25 E10.90287
G1 X73.243 Y75.07 E10.90902
G1 X73.47 Y74.899 E10.91526
G1 X73.701 Y74.74 E10.92142
G1 X73.945 Y74.59 E10.92771
G1 X74.192 Y74.456 E10.93388
G1 X74.448 Y74.333 E10.94011
G1 X74.707 Y74.224 E10.94628
G1 X74.971 Y74.128 E10.95244
G1 X75.243 Y74.042 E10.95871
G1 X75.514 Y73.973 E10.96485
G1 X75.795 Y73.916 E10.97114
G1 X76.076 Y73.874 E10.97738
G1 X76.354 Y73.846 E10.98351
G1 X76.638 Y73.832 E10.98975
G1 X76.921 Y73.832 E10.99596
G1 X77.201 Y73.845 E11.00212
G1 X77.482 Y73.873 E11.00832
G1 X77.766 Y73.916 E11.01462
G1 X78.044 Y73.972 E11.02085
G1 X78.317 Y74.041 E11.02703
G1 X78.587 Y74.125 E11.03324
G1 X78.841 Y74.217 E11.03917
G1 X79.109 Y74.33 E11.04555
G1 X79.366 Y74.453 E11.0518
G1 X79.616 Y74.588 E11.05804
G1 X79.853 Y74.733 E11.06414
G1 X80.09 Y74.894 E11.07043
G1 X80.313 Y75.063 E11.07657
G1 X80.528 Y75.243 E11.08273
G1 X80.74 Y75.438 E11.08905
G1 X80.937 Y75.641 E11.09526
G1 X81.126 Y75.855 E11.10153
G1 X81.298 Y76.069 E11.10755
G1 X81.465 Y76.301 E11.11383
G1 X81.62 Y76.537 E11.12003
G1 X81.76 Y76.784 E11.12626
G1 X81.888 Y77.032 E11.13239
G1 X82.006 Y77.292 E11.13865
G1 X82.11 Y77.556 E11.14488
G1 X82.199 Y77.821 E11.15102
G1 X82.278 Y78.099 E11.15736
G1 X82.341 Y78.374 E11.16356
G1 X82.391 Y78.652 E11.16976
G1 X82.425 Y78.929 E11.17588
G1 X82.446 Y79.213 E11.18213
G1 X82.453 Y79.497 E11.18837
G1 X82.446 Y79.779 E11.19456
G1 X82.425 Y80.059 E11.20073
G1 X82.391 Y80.342 E11.20698
G1 X82.341 Y80.621 E11.21321
G1 X82.28 Y80.895 E11.21937
G1 X82.201 Y81.17 E11.22565
G1 X82.111 Y81.435 E11.23179
G1 X82.01 Y81.696 E11.23794
G1 X81.893 Y81.957 E11.24421
G1 X81.764 Y82.208 E11.25041
G1 X81.626 Y82.452 E11.25656
G1 X81.469 Y82.692 E11.26286
G1 X81.303 Y82.923 E11.2691
G1 X81.13 Y83.14 E11.27519
G1 X80.934 Y83.361 E11.28168
G1 X80.745 Y83.557 E11.28766
G1 X80.538 Y83.749 E11.29385
G1 X80.323 Y83.93 E11.30002
G1 X80.096 Y84.101 E11.30626
G1 X79.865 Y84.26 E11.31242
G1 X79.621 Y84.41 E11.31871
G1 X79.374 Y84.543 E11.32486
G1 X79.118 Y84.667 E11.33111
G1 X78.859 Y84.776 E11.33728
G1 X78.595 Y84.872 E11.34344
G1 X78.322 Y84.958 E11.34973
G1 X78.052 Y85.027 E11.35584
G1 X77.771 Y85.084 E11.36214
G1 X77.489 Y85.126 E11.3684
G1 X77.211 Y85.154 E11.37453
G1 X76.927 Y85.168 E11.38077
G1 X76.644 Y85.168 E11.38698
G1 X76.364 Y85.154 E11.39314
G0 F6000 X76.322 Y85.592
;TYPE:WALL-INNER
G1 F1200 X76.052 Y85.567 E11.39909
G1 X75.714 Y85.516 E11.40659
G1 X75.412 Y85.454 E11.41336
G1 X75.118 Y85.379 E11.42002
G1 X74.829 Y85.289 E11.42667
G1 X74.554 Y85.189 E11.43309
G1 X74.268 Y85.068 E11.43991
G1 X73.997 Y84.938 E11.4465
G1 X73.721 Y84.788 E11.4534
G1 X73.465 Y84.631 E11.45999
G1 X73.21 Y84.457 E11.46677
G1 X72.966 Y84.271 E11.4735
G1 X72.742 Y84.082 E11.47994
G1 X72.509 Y83.868 E11.48688
G1 X72.299 Y83.651 E11.49351
G1 X72.095 Y83.42 E11.50028
G1 X71.907 Y83.184 E11.5069
G1 X71.733 Y82.941 E11.51346
G1 X71.565 Y82.683 E11.52022
G1 X71.411 Y82.413 E11.52704
G1 X71.273 Y82.143 E11.5337
G1 X71.148 Y81.864 E11.54041
G1 X71.039 Y81.585 E11.54699
G1 X70.941 Y81.293 E11.55375
G1 X70.859 Y81 E11.56043
G1 X70.793 Y80.709 E11.56698
G1 X70.738 Y80.402 E11.57382
G1 X70.702 Y80.105 E11.58039
G1 X70.681 Y79.832 E11.5864
G1 X70.673 Y79.526 E11.59312
G1 X70.681 Y79.189 E11.60052
G1 X70.704 Y78.889 E11.60712
G1 X70.742 Y78.581 E11.61394
G1 X70.795 Y78.283 E11.62058
G1 X70.863 Y77.984 E11.62731
G1 X70.949 Y77.688 E11.63408
G1 X71.043 Y77.412 E11.64048
G1 X71.154 Y77.125 E11.64723
G1 X71.28 Y76.844 E11.65399
G1 X71.419 Y76.57 E11.66074
G1 X71.571 Y76.308 E11.66739
G1 X71.738 Y76.053 E11.67408
G1 X71.917 Y75.803 E11.68083
G1 X72.105 Y75.568 E11.68743
G1 X72.3 Y75.348 E11.69389
G1 X72.52 Y75.121 E11.70083
G1 X72.745 Y74.913 E11.70755
G1 X72.978 Y74.718 E11.71422
G1 X73.22 Y74.537 E11.72086
G1 X73.469 Y74.366 E11.72749
G1 X73.735 Y74.203 E11.73434
G1 X74 Y74.06 E11.74095
G1 X74.277 Y73.927 E11.74769
G1 X74.555 Y73.811 E11.7543
G1 X74.839 Y73.708 E11.76094
G1 X75.133 Y73.616 E11.7677
G1 X75.426 Y73.542 E11.77433
G1 X75.729 Y73.481 E11.78112
G1 X76.032 Y73.436 E11.78784
G1 X76.332 Y73.406 E11.79446
G1 X76.604 Y73.392 E11.80044
G1 X76.942 Y73.392 E11.80786
G1 X77.243 Y73.407 E11.81447
G1 X77.513 Y73.433 E11.82043
G1 X77.853 Y73.484 E11.82797
G1 X78.152 Y73.545 E11.83467
G1 X78.414 Y73.611 E11.8406
G1 X78.707 Y73.7 E11.84733
G1 X79.011 Y73.811 E11.85443
G1 X79.299 Y73.933 E11.8613
G1 X79.574 Y74.065 E11.86799
G1 X79.845 Y74.212 E11.87476
G1 X80.101 Y74.369 E11.88135
G1 X80.356 Y74.543 E11.88813
G1 X80.595 Y74.725 E11.89472
G1 X80.825 Y74.919 E11.90133
G1 X81.029 Y75.105 E11.90739
G1 X81.266 Y75.349 E11.91486
G1 X81.47 Y75.58 E11.92162
G1 X81.654 Y75.811 E11.9281
G1 X81.833 Y76.059 E11.93482
G1 X82.002 Y76.319 E11.94163
G1 X82.151 Y76.582 E11.94826
G1 X82.288 Y76.849 E11.95485
G1 X82.416 Y77.131 E11.96165
G1 X82.527 Y77.416 E11.96836
G1 X82.622 Y77.701 E11.97496
G1 X82.707 Y78 E11.98178
G1 X82.774 Y78.296 E11.98844
G1 X82.827 Y78.598 E11.99517
G1 X82.864 Y78.895 E12.00174
G1 X82.886 Y79.202 E12.0085
G1 X82.893 Y79.509 E12.01524
G1 X82.885 Y79.811 E12.02187
G1 X82.862 Y80.111 E12.02848
G1 X82.825 Y80.419 E12.03529
G1 X82.771 Y80.717 E12.04193
G1 X82.713 Y80.978 E12.0478
G1 X82.627 Y81.282 E12.05474
G1 X82.522 Y81.592 E12.06192
G1 X82.412 Y81.876 E12.06861
G1 X82.3 Y82.126 E12.07462
G1 X82.16 Y82.402 E12.08142
G1 X81.995 Y82.692 E12.08874
G1 X81.827 Y82.948 E12.09546
G1 X81.648 Y83.197 E12.10219
G1 X81.474 Y83.416 E12.10833
G1 X81.251 Y83.666 E12.11569
G1 X81.045 Y83.879 E12.12219
G1 X80.822 Y84.085 E12.12886
G1 X80.588 Y84.282 E12.13557
G1 X80.36 Y84.454 E12.14184
G1 X80.097 Y84.634 E12.14884
G1 X79.83 Y84.797 E12.1557
G1 X79.566 Y84.939 E12.16228
G1 X79.289 Y85.073 E12.16904
G1 X79.01 Y85.189 E12.17567
G1 X78.727 Y85.292 E12.18228
G1 X78.432 Y85.384 E12.18907
G1 X78.14 Y85.458 E12.19568
G1 X77.837 Y85.519 E12.20246
G1 X77.533 Y85.564 E12.20921
G1 X77.233 Y85.594 E12.21583
G1 X76.961 Y85.608 E12.22181
G1 X76.623 Y85.608 E12.22923
G1 X76.322 Y85.592 E12.23584
G0 F6000 X76.332 Y86.034
G1 F1200 X76.01 Y86.005 E12.24294
G1 X75.68 Y85.956 E12.25026
G1 X75.358 Y85.893 E12.25747
G1 X75.119 Y85.835 E12.26286
G1 X74.988 Y85.8 E12.26584
G1 X74.679 Y85.703 E12.27295
G1 X74.41 Y85.605 E12.27923
G1 X74.079 Y85.465 E12.28712
G1 X73.781 Y85.322 E12.29438
G1 X73.542 Y85.193 E12.30034
G1 X73.264 Y85.025 E12.30747
G1 X72.99 Y84.84 E12.31473
G1 X72.727 Y84.643 E12.32194
G1 X72.445 Y84.407 E12.33001
G1 X72.241 Y84.221 E12.33607
G1 X72.003 Y83.978 E12.34354
G1 X71.788 Y83.738 E12.35061
G1 X71.751 Y83.695 E12.35186
G1 X71.583 Y83.485 E12.35776
G1 X71.392 Y83.222 E12.3649
G1 X71.218 Y82.958 E12.37184
G1 X71.045 Y82.66 E12.3794
G1 X71.019 Y82.614 E12.38056
G1 X70.873 Y82.325 E12.38767
G1 X70.738 Y82.025 E12.39489
G1 X70.64 Y81.775 E12.40079
G1 X70.534 Y81.466 E12.40796
G1 X70.431 Y81.099 E12.41633
G1 X70.36 Y80.787 E12.42335
G1 X70.311 Y80.516 E12.42939
G1 X70.269 Y80.19 E12.43661
G1 X70.243 Y79.866 E12.44375
G1 X70.233 Y79.538 E12.45095
G1 X70.24 Y79.209 E12.45817
G1 X70.242 Y79.157 E12.45932
G1 X70.267 Y78.837 E12.46636
G1 X70.308 Y78.504 E12.47373
G1 X70.356 Y78.234 E12.47975
G1 X70.424 Y77.927 E12.48665
G1 X70.44 Y77.862 E12.48812
G1 X70.532 Y77.546 E12.49534
G1 X70.632 Y77.255 E12.5021
G1 X70.752 Y76.945 E12.50939
G1 X70.887 Y76.646 E12.5166
G1 X71.038 Y76.351 E12.52387
G1 X71.171 Y76.12 E12.52972
G1 X71.353 Y75.836 E12.53713
G1 X71.573 Y75.53 E12.5454
G1 X71.776 Y75.276 E12.55254
G1 X71.983 Y75.044 E12.55936
G1 X72.176 Y74.842 E12.5655
G1 X72.42 Y74.613 E12.57284
G1 X72.668 Y74.403 E12.57997
G1 X72.933 Y74.202 E12.58728
G1 X73.192 Y74.022 E12.5942
G1 X73.471 Y73.848 E12.60142
G1 X73.525 Y73.816 E12.6028
G1 X73.763 Y73.687 E12.60874
G1 X74.054 Y73.545 E12.61585
G1 X74.404 Y73.397 E12.62419
G1 X74.658 Y73.304 E12.63013
G1 X74.968 Y73.206 E12.63726
G1 X75.023 Y73.19 E12.63852
G1 X75.283 Y73.123 E12.64441
G1 X75.608 Y73.055 E12.6517
G1 X75.934 Y73.004 E12.65895
G1 X76.255 Y72.971 E12.66603
G1 X76.581 Y72.953 E12.6732
G1 X76.91 Y72.952 E12.68042
G1 X77.233 Y72.966 E12.68752
G1 X77.285 Y72.969 E12.68866
G1 X77.613 Y73.002 E12.6959
G1 X77.886 Y73.043 E12.70196
G1 X78.208 Y73.107 E12.70916
G1 X78.521 Y73.185 E12.71624
G1 X78.576 Y73.2 E12.71749
G1 X78.887 Y73.297 E12.72465
G1 X79.13 Y73.385 E12.73032
G1 X79.441 Y73.514 E12.73771
G1 X79.736 Y73.654 E12.74488
G1 X80.023 Y73.806 E12.75201
G1 X80.302 Y73.975 E12.75917
G1 X80.576 Y74.16 E12.76643
G1 X80.622 Y74.192 E12.76766
G1 X80.878 Y74.388 E12.77473
G1 X81.123 Y74.595 E12.78177
G1 X81.326 Y74.78 E12.7878
G1 X81.562 Y75.022 E12.79522
G1 X81.777 Y75.262 E12.8023
G1 X81.978 Y75.511 E12.80932
G1 X82.01 Y75.552 E12.81046
G1 X82.172 Y75.775 E12.81651
G1 X82.348 Y76.042 E12.82353
G1 X82.385 Y76.101 E12.82506
G1 X82.543 Y76.381 E12.83212
G1 X82.688 Y76.666 E12.83914
G1 X82.802 Y76.915 E12.84515
G1 X82.925 Y77.224 E12.85245
G1 X82.944 Y77.275 E12.85365
G1 X83.046 Y77.58 E12.86071
G1 X83.126 Y77.862 E12.86714
G1 X83.207 Y78.218 E12.87515
G1 X83.261 Y78.523 E12.88195
G1 X83.303 Y78.861 E12.88943
G1 X83.323 Y79.134 E12.89544
G1 X83.326 Y79.19 E12.89667
G1 X83.333 Y79.52 E12.90392
G1 X83.324 Y79.844 E12.91103
G1 X83.299 Y80.163 E12.91806
G1 X83.262 Y80.473 E12.92491
G1 X83.206 Y80.787 E12.93191
G1 X83.126 Y81.138 E12.93981
G1 X83.034 Y81.454 E12.94704
G1 X82.933 Y81.749 E12.95388
G1 X82.823 Y82.034 E12.96059
G1 X82.676 Y82.36 E12.96844
G1 X82.542 Y82.619 E12.97484
G1 X82.369 Y82.923 E12.98252
G1 X82.184 Y83.205 E12.98992
G1 X82.024 Y83.428 E12.99595
G1 X81.827 Y83.678 E13.00293
G1 X81.612 Y83.924 E13.01011
G1 X81.369 Y84.178 E13.01782
G1 X81.111 Y84.417 E13.02554
G1 X80.891 Y84.603 E13.03187
G1 X80.603 Y84.82 E13.03978
G1 X80.328 Y85.008 E13.04709
G1 X80.039 Y85.185 E13.05453
G1 X79.758 Y85.335 E13.06153
G1 X79.46 Y85.478 E13.06878
G1 X79.162 Y85.603 E13.07588
G1 X78.858 Y85.712 E13.08297
G1 X78.542 Y85.81 E13.09023
G1 X78.282 Y85.877 E13.09612
G1 X77.928 Y85.95 E13.10406
G1 X77.577 Y86.002 E13.11185
G1 X77.256 Y86.033 E13.11892
G1 X76.984 Y86.047 E13.1249
G1 X76.655 Y86.048 E13.13213
G1 X76.332 Y86.034 E13.13922
G1 F2400 E12.13922
G1 F240 Z0.36
G0 F6000 X100.198 Y91.172 Z0.36
;TYPE:WALL-OUTER
G1 F240 Z0.12
G1 F2400 E13.13922
G1 F1200 X99.735 Y91.028 E13.14987
G1 X99.288 Y90.866 E13.1603
G1 X98.826 Y90.672 E13.1713
G1 X98.387 Y90.463 E13.18198
G1 X97.959 Y90.23 E13.19267
G1 X97.548 Y89.98 E13.20323
G1 X97.141 Y89.704 E13.21403
G1 X96.752 Y89.407 E13.22477
G1 X96.383 Y89.098 E13.23534
G1 X96.021 Y88.766 E13.24612
G1 X95.681 Y88.416 E13.25683
G1 X95.357 Y88.049 E13.26758
G1 X95.054 Y87.671 E13.27821
G1 X94.771 Y87.279 E13.28883
