;FLAVOR:Marlin
;TIME:1917
;Filament used: 1.11736m
;Layer height: 0.12
;MINX:70.194
;MINY:71.694
;MINZ:0.12
;MAXX:109.806
;MAXY:108.306
;MAXZ:2.28
;Generated with Cura_SteamEngine 5.0.0
M140 S60
M105
M190 S60
M104 S200
M105
M109 S200
M82 ;absolute extrusion mode
G28 ; home all axes
 M117 Purge extruder
 G92 E0 ; reset extruder
 G1 Z1.0 F3000 ; move z up little to prevent scratching of surface
 G1 X2 Y20 Z0.3 F5000.0 ; move to start-line position
 G1 X2 Y175.0 Z0.3 F1500.0 E15 ; draw 1st line
 G1 X2 Y175.0 Z0.4 F5000.0 ; move to side a little
 G1 X2 Y20 Z0.4 F1500.0 E30 ; draw 2nd line
 G92 E0 ; reset extruder
 G1 Z1.0 F3000 ; move z up little to prevent scratching of surface
G92 E0
G92 E0
G1 F2400 E-1
;LAYER_COUNT:17
;LAYER:0
M107
G1 F240 Z0.36
;MESH:??????.stl
G0 F6000 X71.778 Y107.944 Z0.36
;TYPE:WALL-OUTER
G1 F240 Z0.12
G1 F2400 E0
G1 F1548.4 X71.596 Y107.936 E0.0031
G1 F1487.3 X71.411 Y107.911 E0.00641
G1 F1389.5 X71.263 Y107.87 E0.00932
G1 F1320 X71.235 Y107.865 E0.00988
G1 F1242.4 X71.093 Y107.81 E0.01311
G1 F1163 X71.057 Y107.799 E0.01397
G1 F1104.6 X70.988 Y107.763 E0.01582
G1 F1047.6 X70.919 Y107.727 E0.01778
G1 F968.8 X70.826 Y107.676 E0.02066
G1 F953.1 X70.777 Y107.601 E0.02314
G1 F1013.4 X70.762 Y107.561 E0.02425
G1 F1068.8 X70.727 Y107.49 E0.0262
G1 F1128.2 X70.691 Y107.419 E0.02806
G1 F1183.9 X70.681 Y107.385 E0.02885
G1 F1263.2 X70.629 Y107.244 E0.03198
G1 F1336.7 X70.624 Y107.216 E0.03254
G1 F1404.3 X70.586 Y107.068 E0.03541
G1 F1495.8 X70.562 Y106.886 E0.03864
G1 F1543.9 X70.56 Y106.655 E0.04258
G1 F1548.4 X70.561 Y106.625 E0.04309
G1 F1500 X70.581 Y106.457 E0.04606
G1 F1411.8 X70.601 Y106.362 E0.04788
G1 F1333.3 X70.622 Y106.267 E0.0498
G1 F1251.2 X70.676 Y106.123 E0.05304
G1 F1202.7 X70.692 Y106.094 E0.05376
G1 F1200 X70.781 Y105.967 E0.05717
G1 X70.804 Y105.939 E0.05796
G1 X70.911 Y105.83 E0.06131
G1 X71.057 Y105.716 E0.06538
G1 X71.213 Y105.626 E0.06933
G1 X71.246 Y105.611 E0.07013
G1 X71.386 Y105.56 E0.0734
G1 X71.416 Y105.551 E0.07409
G1 X71.572 Y105.518 E0.07759
G1 X71.605 Y105.514 E0.07832
G1 X71.765 Y105.505 E0.08184
G1 X71.801 Y105.506 E0.08263
G1 X71.948 Y105.521 E0.08587
G1 X71.978 Y105.526 E0.08654
G1 X72.132 Y105.564 E0.09002
G1 X72.167 Y105.576 E0.09083
G1 X72.302 Y105.635 E0.09407
G1 X72.454 Y105.723 E0.09792
G1 X72.483 Y105.743 E0.0987
G1 X72.62 Y105.858 E0.10262
G1 X72.731 Y105.983 E0.10629
G1 X72.75 Y106.009 E0.107
G1 X72.833 Y106.137 E0.11035
G1 X72.848 Y106.164 E0.11102
G1 X72.911 Y106.3 E0.11432
G1 X72.922 Y106.33 E0.11502
G1 X72.966 Y106.478 E0.11841
G1 X72.974 Y106.513 E0.11919
G1 X72.993 Y106.663 E0.12251
G1 X72.994 Y106.697 E0.12326
G1 X72.988 Y106.883 E0.12734
G1 X72.963 Y107.034 E0.1307
G1 X72.953 Y107.071 E0.13155
G1 X72.902 Y107.218 E0.13496
G1 X72.889 Y107.248 E0.13568
G1 X72.797 Y107.423 E0.14002
G1 X72.775 Y107.458 E0.14093
G1 X72.676 Y107.582 E0.14441
G1 X72.545 Y107.709 E0.14842
G1 X72.518 Y107.731 E0.14918
G1 X72.392 Y107.817 E0.15253
G1 F1202.7 X72.365 Y107.831 E0.15319
G1 F1248.2 X72.219 Y107.886 E0.15649
G1 F1333.3 X72.128 Y107.904 E0.15832
G1 F1411.8 X72.037 Y107.922 E0.16005
G1 F1508.6 X71.778 Y107.944 E0.16459
G0 F6000 X72.043 Y108.274
G1 F1411.8 X72.243 Y108.254 E0.16834
G1 F1320 X72.303 Y108.246 E0.16955
G1 F1248.2 X72.458 Y108.231 E0.17283
G1 F1202.7 X72.519 Y108.229 E0.17417
G1 F1200 X101.695 Y108.23 E0.81463
G1 X107.489 Y108.23 E0.94182
G1 F1191.9 X107.64 Y108.227 E0.94516
G1 F1142.9 X107.695 Y108.211 E0.94648
G1 F1058.1 X107.771 Y108.19 E0.94844
G1 F972.4 X107.848 Y108.168 E0.95061
G1 F907.2 X107.908 Y108.151 E0.95242
G1 F850.2 X107.986 Y108.128 E0.95494
G1 F794 X108.064 Y108.105 E0.95764
G1 X107.992 Y108.069 E0.96031
G1 F850.2 X107.919 Y108.033 E0.96283
G1 F907.2 X107.877 Y108.004 E0.96431
G1 F972.4 X107.813 Y107.957 E0.96647
G1 F1058.1 X107.748 Y107.909 E0.96848
G1 F1142.9 X107.726 Y107.883 E0.96926
G1 F1191.9 X107.594 Y107.809 E0.97261
G1 F1200 X107.564 Y107.79 E0.97339
G1 X107.419 Y107.677 E0.97742
G1 X107.311 Y107.567 E0.98081
G1 X107.289 Y107.542 E0.98154
G1 X107.197 Y107.415 E0.98498
G1 X107.179 Y107.386 E0.98573
G1 X107.111 Y107.253 E0.98901
G1 X107.05 Y107.081 E0.99301
G1 X107.041 Y107.047 E0.99379
G1 X107.014 Y106.895 E0.99717
G1 X107.011 Y106.858 E0.99799
G1 X107.01 Y106.656 E1.00242
G1 X107.013 Y106.616 E1.0033
G1 X107.044 Y106.445 E1.00712
G1 X107.095 Y106.289 E1.01072
G1 X107.107 Y106.26 E1.01141
G1 X107.175 Y106.123 E1.01477
G1 X107.192 Y106.094 E1.01551
G1 X107.281 Y105.967 E1.01891
G1 X107.304 Y105.939 E1.01971
G1 X107.412 Y105.83 E1.02307
G1 X107.435 Y105.81 E1.02374
G1 X107.582 Y105.7 E1.02777
G1 X107.713 Y105.626 E1.03108
G1 X107.746 Y105.611 E1.03187
G1 X107.886 Y105.56 E1.03514
G1 X107.916 Y105.551 E1.03583
G1 X108.072 Y105.518 E1.03933
G1 X108.105 Y105.514 E1.04006
G1 X108.265 Y105.505 E1.04358
G1 X108.301 Y105.506 E1.04437
G1 X108.448 Y105.521 E1.04761
G1 X108.478 Y105.526 E1.04828
G1 X108.631 Y105.564 E1.05174
G1 X108.666 Y105.576 E1.05255
G1 X108.802 Y105.635 E1.05581
G1 X108.954 Y105.723 E1.05966
G1 X108.983 Y105.743 E1.06044
G1 X109.105 Y105.844 E1.06391
G1 X109.13 Y105.868 E1.06467
G1 X109.231 Y105.983 E1.06803
G1 X109.25 Y106.009 E1.06874
G1 X109.333 Y106.137 E1.07209
G1 F1186.5 X109.353 Y106.162 E1.0728
G1 F1116.3 X109.405 Y106.22 E1.07464
G1 F1021.3 X109.457 Y106.279 E1.07667
G1 F949.6 X109.486 Y106.311 E1.07787
G1 F887.4 X109.529 Y106.378 E1.08023
G1 F823.7 X109.573 Y106.446 E1.08282
G1 F775.3 X109.601 Y106.497 E1.0848
G1 X109.618 Y106.44 E1.08682
G1 F823.7 X109.641 Y106.363 E1.08939
G1 F887.4 X109.664 Y106.285 E1.0918
G1 F949.6 X109.68 Y106.23 E1.09339
G1 F1021.3 X109.702 Y106.155 E1.0954
G1 F1116.3 X109.725 Y106.08 E1.09726
G1 F1186.5 X109.73 Y106.02 E1.09859
G1 F1200 X109.73 Y74.029 E1.80085
G1 F1248.2 X109.747 Y73.832 E1.80502
G1 F1333.3 X109.757 Y73.725 E1.80715
G1 F1408 X109.768 Y73.617 E1.80918
G1 F1470.8 X109.773 Y73.558 E1.81024
G1 F1521.6 X109.78 Y73.356 E1.81374
G1 F1557.5 X109.781 Y73.148 E1.81725
G1 F1521.6 X109.773 Y72.94 E1.82086
G1 F1423.2 X109.757 Y72.73 E1.82476
G1 F1323.3 X109.745 Y72.625 E1.82686
G1 F1248.2 X109.732 Y72.52 E1.82909
G1 F1152.8 X109.71 Y72.367 E1.83262
G1 F1071 X109.698 Y72.296 E1.8344
G1 F1013.4 X109.682 Y72.209 E1.83669
G1 F953.1 X109.665 Y72.121 E1.83917
G1 F924.7 X109.665 Y71.835 E1.84732
G1 X109.379 Y71.835 E1.85547
G1 F947.9 X109.311 Y71.823 E1.85739
G1 F998.1 X109.232 Y71.808 E1.85951
G1 F1053.9 X109.153 Y71.793 E1.86152
G1 F1111.6 X109.077 Y71.782 E1.86334
G1 F1194.6 X108.928 Y71.762 E1.86665
G1 F1284.7 X108.829 Y71.751 E1.86869
G1 F1357.3 X108.73 Y71.74 E1.87063
G1 F1411.8 X108.667 Y71.734 E1.87181
G1 F1479 X108.46 Y71.723 E1.8755
G1 F1548.4 X108.259 Y71.719 E1.87892
G1 X108.046 Y71.723 E1.88255
G1 F1462.6 X107.887 Y71.738 E1.88542
G1 F1357.3 X107.787 Y71.749 E1.88737
G1 F1284.7 X107.686 Y71.76 E1.88946
G1 F1230.8 X107.62 Y71.769 E1.89088
G1 F1205.5 X107.024 Y71.771 E1.90391
G1 F1200 X88.5 Y71.77 E2.31054
G1 X72.428 Y71.771 E2.66335
G1 F1186.5 X72.377 Y71.776 E2.66448
G1 F1121 X72.304 Y71.797 E2.66627
G1 F1029.2 X72.23 Y71.818 E2.66824
G1 F954.8 X72.167 Y71.835 E2.67004
G1 F890.4 X72.088 Y71.857 E2.67247
G1 F827.6 X72.009 Y71.88 E2.67508
G1 F782.2 X71.96 Y71.896 E2.67682
G1 X72.005 Y71.919 E2.67852
G1 F827.6 X72.076 Y71.959 E2.68112
G1 F890.4 X72.147 Y72 E2.68354
G1 F954.8 X72.186 Y72.032 E2.68493
G1 F1029.2 X72.244 Y72.081 E2.68688
G1 F1121 X72.303 Y72.13 E2.68868
G1 F1186.5 X72.326 Y72.147 E2.68931
G1 F1200 X72.454 Y72.223 E2.69258
G1 X72.483 Y72.243 E2.69335
G1 X72.605 Y72.344 E2.69683
G1 X72.63 Y72.368 E2.69759
G1 X72.731 Y72.483 E2.70095
G1 X72.75 Y72.509 E2.70166
G1 X72.833 Y72.637 E2.70501
G1 X72.848 Y72.664 E2.70569
G1 X72.911 Y72.8 E2.70898
G1 X72.922 Y72.83 E2.70968
G1 X72.966 Y72.978 E2.71307
G1 X72.974 Y73.013 E2.71385
G1 X72.993 Y73.163 E2.71717
G1 X72.991 Y73.353 E2.72134
G1 X72.988 Y73.383 E2.72201
G1 X72.963 Y73.534 E2.72537
G1 X72.953 Y73.571 E2.72621
G1 X72.902 Y73.718 E2.72962
G1 X72.889 Y73.748 E2.73034
G1 X72.797 Y73.923 E2.73468
G1 X72.774 Y73.958 E2.7356
G1 X72.658 Y74.101 E2.73964
G1 X72.545 Y74.208 E2.74306
G1 X72.518 Y74.23 E2.74382
G1 X72.392 Y74.316 E2.74717
G1 X72.365 Y74.332 E2.74786
G1 X72.226 Y74.401 E2.75127
G1 X72.195 Y74.413 E2.752
G1 X72.049 Y74.459 E2.75536
G1 X72.01 Y74.468 E2.75624
G1 X71.806 Y74.494 E2.76075
G1 X71.766 Y74.495 E2.76163
G1 X71.586 Y74.484 E2.76559
G1 X71.433 Y74.455 E2.76901
G1 X71.398 Y74.445 E2.76981
G1 X71.254 Y74.392 E2.77317
G1 X71.227 Y74.38 E2.77382
G1 X71.094 Y74.309 E2.77713
G1 X71.064 Y74.29 E2.77791
G1 X70.942 Y74.197 E2.78128
G1 X70.811 Y74.068 E2.78531
G1 X70.789 Y74.042 E2.78606
G1 X70.697 Y73.915 E2.7895
G1 F1205.5 X70.681 Y73.885 E2.79025
G1 F1254.2 X70.627 Y73.745 E2.7934
G1 F1367.9 X70.585 Y73.568 E2.7969
G1 F1491.5 X70.562 Y73.386 E2.80014
G1 F1543.9 X70.56 Y73.155 E2.80408
G1 F1548.4 X70.561 Y73.125 E2.80459
G1 F1504.3 X70.582 Y72.958 E2.80754
G1 F1415.5 X70.621 Y72.798 E2.81061
G1 F1346.9 X70.626 Y72.769 E2.81118
G1 F1269.2 X70.678 Y72.624 E2.81438
G1 F1191.9 X70.687 Y72.591 E2.81514
G1 F1106.9 X70.756 Y72.45 E2.81887
G1 F1023.3 X70.772 Y72.407 E2.82005
G1 F956.5 X70.827 Y72.323 E2.82282
G1 F942.9 X70.873 Y72.292 E2.82437
G1 F988.8 X70.911 Y72.278 E2.82545
G1 F1041.4 X70.98 Y72.242 E2.82741
G1 F1097.7 X71.049 Y72.205 E2.82929
G1 F1150.3 X71.08 Y72.196 E2.83003
G1 F1227.9 X71.221 Y72.139 E2.8333
G1 F1310.2 X71.254 Y72.132 E2.83397
G1 F1382.2 X71.398 Y72.093 E2.83682
G1 F1450.5 X71.46 Y72.084 E2.83795
G1 F1393.1 X71.516 Y72.051 E2.83918
G1 F1257.1 X71.572 Y72.018 E2.84055
G1 F1150.3 X71.604 Y71.995 E2.84145
G1 F1056 X71.662 Y71.97 E2.84302
G1 F970.6 X71.72 Y71.945 E2.84474
G1 F898 X71.778 Y71.92 E2.84659
G1 F818.6 X71.863 Y71.891 E2.84948
G1 X71.778 Y71.855 E2.85245
G1 F877.1 X71.759 Y71.848 E2.85306
G1 F919.9 X71.706 Y71.829 E2.85467
G1 F985.1 X71.652 Y71.809 E2.85621
G1 F1062.4 X71.599 Y71.789 E2.85762
G1 F1150.3 X71.546 Y71.771 E2.8589
G1 F1257.1 X71.485 Y71.75 E2.86025
G1 F1393.1 X71.423 Y71.729 E2.86149
G1 F1450.5 X71.335 Y71.735 E2.86309
G1 F1382.2 X71.186 Y71.748 E2.86594
G1 F1310.2 X71.12 Y71.756 E2.86728
G1 F1227.9 X70.97 Y71.775 E2.87052
G1 F1150.3 X70.907 Y71.785 E2.87198
G1 F1097.7 X70.83 Y71.798 E2.87385
G1 F1041.4 X70.753 Y71.811 E2.87583
G1 F967 X70.623 Y71.837 E2.87944
G1 F923.1 X70.337 Y71.837 E2.8876
G1 X70.337 Y72.123 E2.89576
G1 F956.5 X70.316 Y72.221 E2.89852
G1 F1023.3 X70.3 Y72.306 E2.90075
G1 F1106.9 X70.276 Y72.461 E2.90448
G1 F1191.9 X70.267 Y72.528 E2.90598
G1 F1269.2 X70.249 Y72.681 E2.90917
G1 F1360.8 X70.24 Y72.792 E2.91133
G1 F1430.9 X70.231 Y72.903 E2.91338
G1 F1504.3 X70.221 Y73.096 E2.91676
G1 F1543.9 X70.221 Y73.416 E2.92222
G1 F1491.5 X70.233 Y73.627 E2.92596
G1 F1404.3 X70.243 Y73.731 E2.92792
G1 F1333.3 X70.253 Y73.835 E2.92998
G1 F1254.2 X70.269 Y73.984 E2.93313
G1 F1205.5 X70.271 Y74.953 E2.9543
G1 F1200 X70.27 Y75.763 E2.97208
G1 X70.271 Y77.554 E3.0114
G1 X70.27 Y105.961 E3.63498
G1 F1202.7 X70.269 Y106.028 E3.63645
G1 F1236.5 X70.258 Y106.133 E3.6387
G1 F1303.7 X70.247 Y106.238 E3.64083
G1 F1375 X70.238 Y106.346 E3.64291
G1 F1450.5 X70.228 Y106.454 E3.64488
G1 F1521.6 X70.22 Y106.656 E3.64838
G1 F1543.9 X70.221 Y106.916 E3.65281
G1 F1495.8 X70.232 Y107.127 E3.65653
G1 F1382.2 X70.25 Y107.335 E3.66051
G1 F1263.2 X70.269 Y107.484 E3.66365
G1 F1183.9 X70.278 Y107.553 E3.66519
G1 F1128.2 X70.29 Y107.631 E3.66704
G1 F1068.8 X70.303 Y107.71 E3.66901
G1 F1013.4 X70.319 Y107.79 E3.67113
G1 F953.1 X70.337 Y107.877 E3.67359
G1 F923.1 X70.337 Y108.163 E3.68175
G1 X70.623 Y108.163 E3.68991
G1 F946.2 X70.689 Y108.178 E3.69179
G1 F994.4 X70.762 Y108.191 E3.69376
G1 F1047.6 X70.839 Y108.204 E3.69572
G1 F1104.6 X70.916 Y108.217 E3.69758
G1 F1163 X70.989 Y108.228 E3.69926
G1 F1242.4 X71.14 Y108.247 E3.70248
G1 F1333.3 X71.244 Y108.257 E3.70455
G1 F1404.3 X71.348 Y108.267 E3.70651
G1 F1491.5 X71.61 Y108.279 E3.71114
G1 F1557.5 X71.821 Y108.28 E3.71471
G1 F1526 X72.043 Y108.274 E3.71854
G1 F2400 E2.71854
G1 F240 Z0.36
G0 F6000 X108.152 Y108.109 Z0.36
G1 F240 Z0.12
G1 F2400 E3.71854
G1 F808.6 X108.215 Y108.135 E3.72076
G1 F875.6 X108.278 Y108.161 E3.72281
G1 F939.5 X108.321 Y108.176 E3.72409
G1 F1000 X108.372 Y108.193 E3.7255
G1 F1073.2 X108.423 Y108.211 E3.72683
G1 F1157.9 X108.474 Y108.229 E3.72806
G1 F1257.1 X108.525 Y108.247 E3.7292
G1 F1385.8 X108.591 Y108.271 E3.73053
G1 F1404.3 X108.804 Y108.253 E3.73454
G1 F1281.6 X108.959 Y108.234 E3.73775
G1 F1205.5 X109.016 Y108.227 E3.73901
G1 F1125.8 X109.17 Y108.204 E3.74265
G1 F1041.4 X109.252 Y108.189 E3.74476
G1 F965.3 X109.378 Y108.164 E3.74826
G1 F923.1 X109.664 Y108.164 E3.75642
G1 X109.664 Y107.878 E3.76459
G1 F956.5 X109.684 Y107.776 E3.76745
G1 F1019.3 X109.698 Y107.697 E3.76952
G1 F1077.6 X109.712 Y107.617 E3.77151
G1 F1140.4 X109.725 Y107.529 E3.77356
G1 F1208.2 X109.737 Y107.431 E3.77571
G1 F1278.5 X109.75 Y107.332 E3.77777
G1 F1353.8 X109.76 Y107.214 E3.78008
G1 F1430.9 X109.771 Y107.096 E3.78226
G1 F1423.2 X109.759 Y107.058 E3.783
G1 F1316.7 X109.741 Y107.007 E3.78408
G1 F1208.2 X109.723 Y106.955 E3.78528
G1 F1116.3 X109.704 Y106.903 E3.78658
G1 F1039.4 X109.688 Y106.856 E3.78784
G1 F968.8 X109.668 Y106.801 E3.78943
G1 F899.5 X109.647 Y106.746 E3.79116
G1 F840.8 X109.626 Y106.691 E3.793
G1 F796.4 X109.611 Y106.648 E3.79451
G1 F800 X109.595 Y106.7 E3.7963
G1 F848.9 X109.575 Y106.751 E3.798
G1 F905.7 X109.554 Y106.802 E3.7996
G1 F970.6 X109.533 Y106.853 E3.8011
G1 F1039.4 X109.514 Y106.888 E3.80211
G1 F1116.3 X109.488 Y106.935 E3.80338
G1 F1208.2 X109.462 Y106.982 E3.80455
G1 F1316.7 X109.436 Y107.03 E3.80564
G1 F1415.5 X109.416 Y107.058 E3.80628
G1 F1382.2 X109.372 Y107.239 E3.80983
G1 F1278.5 X109.337 Y107.332 E3.81188
G1 F1208.2 X109.301 Y107.425 E3.81405
G1 F1140.4 X109.288 Y107.469 E3.81511
G1 F1077.6 X109.25 Y107.539 E3.81706
G1 F1019.3 X109.211 Y107.61 E3.81915
G1 F956.5 X109.182 Y107.67 E3.82099
G1 F965.3 X109.073 Y107.738 E3.82449
G1 F1041.4 X109.032 Y107.753 E3.8256
G1 F1125.8 X108.891 Y107.819 E3.82924
G1 F1205.5 X108.863 Y107.827 E3.82988
G1 F1281.6 X108.716 Y107.88 E3.83309
G1 F1400.5 X108.536 Y107.92 E3.83656
G1 F1385.8 X108.508 Y107.949 E3.83732
G1 F1257.1 X108.459 Y107.973 E3.83847
G1 F1157.9 X108.41 Y107.998 E3.83972
G1 F1073.2 X108.361 Y108.023 E3.84107
G1 F1000 X108.312 Y108.047 E3.84251
G1 F929.6 X108.262 Y108.07 E3.84407
G1 F862.7 X108.207 Y108.089 E3.84584
G1 F804.9 X108.152 Y108.109 E3.84776
G1 F2400 E2.84776
G1 F240 Z0.36
G0 F6000 X108.306 Y74.494 Z0.36
G1 F240 Z0.12
G1 F2400 E3.84776
G1 F1200 X108.266 Y74.495 E3.84864
G1 X108.087 Y74.484 E3.85257
G1 X107.934 Y74.455 E3.85599
G1 X107.899 Y74.445 E3.85679
G1 X107.727 Y74.38 E3.86083
G1 X107.594 Y74.309 E3.86414
G1 X107.564 Y74.289 E3.86493
G1 X107.442 Y74.196 E3.8683
G1 X107.398 Y74.155 E3.86962
G1 X107.311 Y74.067 E3.87233
G1 X107.289 Y74.042 E3.87306
G1 X107.197 Y73.915 E3.87651
G1 X107.18 Y73.886 E3.87724
G1 X107.112 Y73.753 E3.88052
G1 X107.1 Y73.725 E3.88119
G1 X107.05 Y73.581 E3.88454
G1 X107.041 Y73.547 E3.88531
G1 X107.014 Y73.395 E3.8887
G1 X107.011 Y73.358 E3.88951
G1 X107.01 Y73.156 E3.89395
G1 X107.013 Y73.116 E3.89483
G1 X107.044 Y72.945 E3.89864
G1 X107.095 Y72.789 E3.90225
G1 X107.107 Y72.76 E3.90293
G1 X107.175 Y72.623 E3.90629
G1 X107.192 Y72.594 E3.90703
G1 X107.281 Y72.467 E3.91043
G1 X107.304 Y72.439 E3.91123
G1 X107.411 Y72.33 E3.91458
G1 X107.435 Y72.309 E3.91528
G1 X107.557 Y72.216 E3.91865
G1 X107.582 Y72.2 E3.9193
G1 F1205.5 X107.714 Y72.128 E3.92259
G1 F1242.4 X107.804 Y72.106 E3.92455
G1 F1316.7 X107.895 Y72.084 E3.92642
G1 F1400.5 X108.001 Y72.074 E3.92843
G1 F1495.8 X108.108 Y72.063 E3.93032
G1 F1552.9 X108.295 Y72.056 E3.9335
G1 F1534.9 X108.467 Y72.07 E3.93646
G1 F1450.5 X108.654 Y72.104 E3.93991
G1 F1340.1 X108.795 Y72.149 E3.94282
G1 F1269.2 X108.821 Y72.155 E3.94337
G1 F1194.6 X108.96 Y72.213 E3.94669
G1 F1111.6 X108.998 Y72.225 E3.94764
G1 F1053.9 X109.068 Y72.264 E3.94964
G1 F998.1 X109.138 Y72.304 E3.95177
G1 F954.8 X109.176 Y72.328 E3.95301
G1 F963.5 X109.215 Y72.395 E3.95513
G1 F1017.3 X109.255 Y72.462 E3.95715
G1 F1071 X109.267 Y72.498 E3.95808
G1 F1152.8 X109.331 Y72.638 E3.9616
