;FLAVOR:Marlin
;TIME:2199
;Filament used: 1.1475m
;Layer height: 0.12
;MINX:70.194
;MINY:71.694
;MINZ:0.12
;MAXX:109.806
;MAXY:108.306
;MAXZ:4.8
;Generated with Cura_SteamEngine 5.0.0
M140 S60
M105
M190 S60
M104 S200
M105
M109 S200
M82 ;absolute extrusion mode
G28 ; home all axes
 M117 Purge extruder
 G92 E0 ; reset extruder
 G1 Z1.0 F3000 ; move z up little to prevent scratching of surface
 G1 X2 Y20 Z0.3 F5000.0 ; move to start-line position
 G1 X2 Y175.0 Z0.3 F1500.0 E15 ; draw 1st line
 G1 X2 Y175.0 Z0.4 F5000.0 ; move to side a little
 G1 X2 Y20 Z0.4 F1500.0 E30 ; draw 2nd line
 G92 E0 ; reset extruder
 G1 Z1.0 F3000 ; move z up little to prevent scratching of surface
G92 E0
G92 E0
G1 F2400 E-1
;LAYER_COUNT:38
;LAYER:0
M107
G1 F240 Z0.36
;MESH:???????????????_??????.stl
G0 F6000 X80.04 Y92.145 Z0.36
;TYPE:WALL-OUTER
G1 F240 Z0.12
G1 F2400 E0
G1 F1200 X79.976 Y92.152 E0.00141
G1 X79.835 Y92.163 E0.00452
G1 X79.655 Y92.153 E0.00848
G1 X79.471 Y92.116 E0.0126
G1 X79.314 Y92.061 E0.01625
G1 X79.2 Y92.004 E0.01904
G1 X79.138 Y91.971 E0.02059
G1 X78.977 Y91.852 E0.02498
G1 X78.853 Y91.73 E0.0288
G1 X78.831 Y91.706 E0.02951
G1 X78.741 Y91.586 E0.03281
G1 X78.643 Y91.412 E0.03719
G1 X78.629 Y91.381 E0.03794
G1 X78.581 Y91.25 E0.041
G1 X78.572 Y91.22 E0.04169
G1 X78.539 Y91.062 E0.04523
G1 X78.525 Y90.889 E0.04904
G1 X78.525 Y90.856 E0.04977
G1 X78.538 Y90.688 E0.05346
G1 X78.543 Y90.654 E0.05422
G1 X78.578 Y90.506 E0.05756
G1 X78.589 Y90.474 E0.0583
G1 X78.66 Y90.301 E0.06241
G1 X78.737 Y90.163 E0.06587
G1 X78.755 Y90.136 E0.06659
G1 X78.848 Y90.015 E0.06994
G1 X78.87 Y89.991 E0.07065
G1 X78.979 Y89.886 E0.07397
G1 X79.002 Y89.867 E0.07463
G1 X79.12 Y89.781 E0.07783
G1 X79.151 Y89.762 E0.07863
G1 X79.324 Y89.675 E0.08288
G1 X79.357 Y89.661 E0.08367
G1 X79.505 Y89.615 E0.08707
G1 X79.537 Y89.608 E0.08779
G1 X79.715 Y89.582 E0.09174
G1 X79.921 Y89.581 E0.09626
G1 X80.085 Y89.603 E0.09989
G1 X80.259 Y89.653 E0.10387
G1 X80.435 Y89.73 E0.10809
G1 X80.468 Y89.748 E0.10891
G1 X80.604 Y89.84 E0.11252
G1 X80.756 Y89.98 E0.11705
G1 X80.886 Y90.138 E0.12154
G1 X80.901 Y90.16 E0.12213
G1 X81.009 Y90.357 E0.12706
G1 X81.071 Y90.534 E0.13118
G1 X81.105 Y90.706 E0.13502
G1 X81.115 Y90.88 E0.13885
G1 X81.102 Y91.049 E0.14257
G1 X81.097 Y91.079 E0.14324
G1 X81.057 Y91.256 E0.14722
G1 X80.981 Y91.44 E0.15159
G1 X80.864 Y91.635 E0.15658
G1 X80.744 Y91.777 E0.16067
G1 X80.586 Y91.915 E0.16527
G1 X80.565 Y91.93 E0.16584
G1 X80.374 Y92.042 E0.1707
G1 X80.208 Y92.104 E0.17459
G1 X80.04 Y92.145 E0.17838
G0 F6000 X80.012 Y92.591
;TYPE:WALL-INNER
G1 F1200 X79.847 Y92.603 E0.18202
G1 X79.754 Y92.6 E0.18406
G1 X79.601 Y92.59 E0.18742
G1 X79.465 Y92.565 E0.19046
G1 X79.359 Y92.542 E0.19284
G1 X79.287 Y92.519 E0.1945
G1 X79.127 Y92.46 E0.19824
G1 X78.95 Y92.37 E0.2026
G1 X78.869 Y92.32 E0.20469
G1 X78.71 Y92.202 E0.20904
G1 X78.655 Y92.153 E0.21065
G1 X78.543 Y92.042 E0.21412
G1 X78.479 Y91.97 E0.21623
G1 X78.389 Y91.85 E0.21952
G1 X78.34 Y91.773 E0.22153
G1 X78.258 Y91.625 E0.22524
G1 X78.216 Y91.533 E0.22746
G1 X78.168 Y91.402 E0.23052
G1 X78.142 Y91.312 E0.23258
G1 X78.105 Y91.138 E0.23649
G1 X78.097 Y91.073 E0.23792
G1 X78.086 Y90.921 E0.24127
G1 X78.086 Y90.822 E0.24344
G1 X78.099 Y90.654 E0.24714
G1 X78.115 Y90.553 E0.24939
G1 X78.15 Y90.405 E0.25272
G1 X78.181 Y90.308 E0.25496
G1 X78.241 Y90.16 E0.25846
G1 X78.276 Y90.087 E0.26024
G1 X78.353 Y89.949 E0.26371
G1 X78.406 Y89.868 E0.26584
G1 X78.499 Y89.747 E0.26919
G1 X78.565 Y89.674 E0.27135
G1 X78.674 Y89.569 E0.27467
G1 X78.743 Y89.511 E0.27665
G1 X78.861 Y89.425 E0.27985
G1 X78.953 Y89.369 E0.28222
G1 X79.126 Y89.282 E0.28647
G1 X79.227 Y89.241 E0.28886
G1 X79.375 Y89.195 E0.29226
G1 X79.471 Y89.173 E0.29442
G1 X79.629 Y89.149 E0.29793
G1 X79.72 Y89.142 E0.29994
G1 X79.931 Y89.141 E0.30457
G1 X79.977 Y89.145 E0.30558
G1 X80.174 Y89.172 E0.30995
G1 X80.365 Y89.225 E0.3143
G1 X80.452 Y89.256 E0.31633
G1 X80.614 Y89.328 E0.32022
G1 X80.712 Y89.382 E0.32267
G1 X80.835 Y89.464 E0.32592
G1 X80.912 Y89.525 E0.32807
G1 X81.064 Y89.665 E0.33261
G1 X81.216 Y89.846 E0.3378
G1 X81.265 Y89.912 E0.3396
G1 X81.382 Y90.12 E0.34484
G1 X81.415 Y90.187 E0.34648
G1 X81.491 Y90.401 E0.35147
G1 X81.504 Y90.455 E0.35269
G1 X81.539 Y90.628 E0.35656
G1 X81.545 Y90.689 E0.35791
G1 X81.555 Y90.873 E0.36195
G1 X81.553 Y90.935 E0.36331
G1 X81.536 Y91.122 E0.36744
G1 X81.526 Y91.175 E0.36862
G1 X81.477 Y91.386 E0.37337
G1 X81.458 Y91.439 E0.37461
G1 X81.381 Y91.625 E0.37903
G1 X81.354 Y91.674 E0.38026
G1 X81.242 Y91.862 E0.38506
G1 X81.187 Y91.936 E0.38708
G1 X81.062 Y92.081 E0.39129
G1 X80.888 Y92.236 E0.3964
G1 X80.811 Y92.295 E0.39853
G1 X80.598 Y92.421 E0.40396
G1 X80.517 Y92.459 E0.40593
G1 X80.38 Y92.511 E0.40915
G1 X80.298 Y92.536 E0.41103
G1 X80.103 Y92.581 E0.41542
G1 X80.012 Y92.591 E0.41743
G0 F6000 X79.31 Y92.982
G1 F1200 X79.247 Y92.967 E0.41885
G1 X79.138 Y92.933 E0.42136
G1 X78.953 Y92.864 E0.42569
G1 X78.882 Y92.83 E0.42742
G1 X78.747 Y92.76 E0.43076
G1 X78.675 Y92.719 E0.43258
G1 X78.6 Y92.668 E0.43457
G1 X78.436 Y92.547 E0.43904
G1 X78.345 Y92.466 E0.44172
G1 X78.233 Y92.355 E0.44518
G1 X78.127 Y92.234 E0.44871
G1 X78.037 Y92.114 E0.452
G1 X77.955 Y91.987 E0.45532
G1 X77.873 Y91.839 E0.45903
G1 X77.803 Y91.684 E0.46277
G1 X77.754 Y91.553 E0.46584
G1 X77.712 Y91.404 E0.46924
G1 X77.672 Y91.214 E0.4735
G1 X77.658 Y91.105 E0.47591
G1 X77.647 Y90.953 E0.47926
G1 X77.645 Y90.873 E0.48101
G1 X77.648 Y90.788 E0.48288
G1 X77.661 Y90.62 E0.48658
G1 X77.687 Y90.451 E0.49033
G1 X77.722 Y90.303 E0.49367
G1 X77.773 Y90.143 E0.49736
G1 X77.833 Y89.995 E0.50086
G1 X77.892 Y89.872 E0.50386
G1 X77.969 Y89.734 E0.50733
G1 X78.057 Y89.6 E0.51085
G1 X78.15 Y89.479 E0.5142
G1 X78.259 Y89.357 E0.51779
G1 X78.368 Y89.252 E0.52111
G1 X78.484 Y89.155 E0.52443
G1 X78.602 Y89.069 E0.52763
G1 X78.755 Y88.976 E0.53156
G1 X78.928 Y88.889 E0.53582
G1 X79.096 Y88.821 E0.53979
G1 X79.244 Y88.775 E0.5432
G1 X79.405 Y88.738 E0.54682
G1 X79.563 Y88.714 E0.55033
G1 X79.663 Y88.703 E0.55254
G1 X79.892 Y88.7 E0.55757
G1 X79.956 Y88.701 E0.55897
G1 X80.033 Y88.708 E0.56067
G1 X80.181 Y88.727 E0.56394
G1 X80.263 Y88.741 E0.56577
G1 X80.344 Y88.761 E0.5676
G1 X80.487 Y88.802 E0.57087
G1 X80.56 Y88.826 E0.57255
G1 X80.63 Y88.854 E0.57421
G1 X80.792 Y88.926 E0.5781
G1 X80.877 Y88.968 E0.58018
G1 X80.956 Y89.016 E0.58221
G1 X81.079 Y89.098 E0.58546
G1 X81.146 Y89.147 E0.58728
G1 X81.207 Y89.199 E0.58904
G1 X81.325 Y89.306 E0.59253
G1 X81.382 Y89.361 E0.59427
G1 X81.433 Y89.418 E0.59595
G1 X81.555 Y89.565 E0.60015
G1 X81.598 Y89.62 E0.60168
G1 X81.636 Y89.676 E0.60316
G1 X81.766 Y89.906 E0.60896
G1 X81.821 Y90.018 E0.6117
G1 X81.894 Y90.218 E0.61638
G1 X81.925 Y90.322 E0.61876
G1 X81.97 Y90.54 E0.62364
G1 X81.98 Y90.611 E0.62522
G1 X81.985 Y90.663 E0.62637
G1 X81.995 Y90.871 E0.63094
G1 X81.992 Y90.972 E0.63315
G1 X81.974 Y91.166 E0.63743
G1 X81.965 Y91.225 E0.63874
G1 X81.92 Y91.432 E0.64339
G1 X81.897 Y91.517 E0.64533
G1 X81.865 Y91.605 E0.64738
G1 X81.806 Y91.75 E0.65082
G1 X81.756 Y91.858 E0.65343
G1 X81.613 Y92.099 E0.65958
G1 X81.58 Y92.147 E0.66086
G1 X81.521 Y92.222 E0.66295
G1 X81.38 Y92.385 E0.66769
G1 X81.311 Y92.451 E0.66978
G1 X81.179 Y92.567 E0.67364
G1 X81.12 Y92.615 E0.67531
G1 X81.018 Y92.684 E0.67801
G1 X80.808 Y92.808 E0.68337
G1 X80.738 Y92.843 E0.68508
G1 X80.673 Y92.87 E0.68663
G1 X80.536 Y92.922 E0.68985
G1 X80.46 Y92.948 E0.69161
G1 X80.243 Y93.001 E0.69651
G1 X80.179 Y93.014 E0.69795
G1 X80.079 Y93.027 E0.70016
G1 X79.858 Y93.043 E0.70502
G1 X79.761 Y93.042 E0.70715
G1 X79.588 Y93.03 E0.71096
G1 X79.483 Y93.017 E0.71328
G1 X79.31 Y92.982 E0.71716
G1 F2400 E-0.28284
G1 F240 Z0.36
G0 F6000 X80.045 Y102.184 Z0.36
;TYPE:WALL-OUTER
G1 F240 Z0.12
G1 F2400 E0.71716
G1 F1200 X79.866 Y102.202 E0.72111
G1 X79.831 Y102.202 E0.72187
G1 X79.647 Y102.191 E0.72592
G1 X79.616 Y102.187 E0.72661
G1 X79.457 Y102.154 E0.73017
G1 X79.422 Y102.143 E0.73098
G1 X79.287 Y102.09 E0.73416
G1 X79.256 Y102.075 E0.73492
G1 X79.092 Y101.979 E0.73909
G1 X79.065 Y101.96 E0.73981
G1 X78.927 Y101.846 E0.74374
G1 X78.812 Y101.72 E0.74749
G1 X78.704 Y101.565 E0.75163
G1 X78.624 Y101.399 E0.75568
G1 X78.565 Y101.227 E0.75967
G1 X78.556 Y101.189 E0.76053
G1 X78.528 Y100.996 E0.76481
G1 X78.526 Y100.957 E0.76567
G1 X78.531 Y100.79 E0.76933
G1 X78.535 Y100.753 E0.77015
G1 X78.575 Y100.554 E0.77461
G1 X78.587 Y100.515 E0.7755
G1 X78.655 Y100.349 E0.77944
G1 X78.73 Y100.212 E0.78287
G1 X78.748 Y100.185 E0.78358
G1 X78.841 Y100.062 E0.78697
G1 X78.864 Y100.036 E0.78773
G1 X78.987 Y99.919 E0.79145
G1 X79.162 Y99.795 E0.79616
G1 X79.33 Y99.712 E0.80028
G1 X79.504 Y99.656 E0.80429
G1 X79.684 Y99.624 E0.8083
G1 X79.878 Y99.618 E0.81256
G1 X80.062 Y99.639 E0.81663
G1 X80.294 Y99.705 E0.82192
G1 X80.458 Y99.784 E0.82592
G1 X80.616 Y99.886 E0.83005
G1 X80.753 Y100.011 E0.83412
G1 X80.863 Y100.144 E0.83791
G1 X80.962 Y100.303 E0.84202
G1 X80.977 Y100.332 E0.84273
G1 X81.044 Y100.492 E0.84654
G1 X81.092 Y100.669 E0.85057
G1 X81.114 Y100.85 E0.85457
G1 X81.106 Y101.061 E0.85921
G1 X81.102 Y101.096 E0.85998
G1 X81.069 Y101.255 E0.86354
G1 X81.038 Y101.341 E0.86555
G1 X81.001 Y101.436 E0.86779
G1 X80.902 Y101.617 E0.87232
G1 X80.798 Y101.757 E0.87615
G1 X80.68 Y101.876 E0.87982
G1 X80.654 Y101.899 E0.88059
G1 X80.494 Y102.017 E0.88495
G1 X80.457 Y102.039 E0.8859
G1 X80.298 Y102.114 E0.88975
G1 X80.262 Y102.127 E0.8906
G1 X80.045 Y102.184 E0.89552
G0 F6000 X80.179 Y102.605
;TYPE:WALL-INNER
G1 F1200 X80.121 Y102.618 E0.89683
G1 X80.068 Y102.625 E0.898
G1 X79.906 Y102.64 E0.90157
G1 X79.805 Y102.641 E0.90379
G1 X79.621 Y102.63 E0.90783
G1 X79.526 Y102.618 E0.90994
G1 X79.367 Y102.585 E0.9135
G1 X79.261 Y102.553 E0.91593
G1 X79.126 Y102.5 E0.91911
G1 X79.034 Y102.455 E0.92136
G1 X78.87 Y102.359 E0.92553
G1 X78.787 Y102.302 E0.92774
G1 X78.669 Y102.206 E0.93108
G1 X78.598 Y102.139 E0.93323
G1 X78.474 Y102.002 E0.93728
G1 X78.437 Y101.953 E0.93863
G1 X78.33 Y101.796 E0.9428
G1 X78.295 Y101.733 E0.94438
G1 X78.214 Y101.559 E0.9486
G1 X78.196 Y101.513 E0.94968
G1 X78.147 Y101.366 E0.95308
G1 X78.123 Y101.271 E0.95523
G1 X78.092 Y101.059 E0.95994
G1 X78.086 Y100.944 E0.96246
G1 X78.091 Y100.777 E0.96613
G1 X78.103 Y100.666 E0.96858
G1 X78.143 Y100.467 E0.97304
G1 X78.179 Y100.349 E0.97575
G1 X78.237 Y100.206 E0.97913
G1 X78.269 Y100.138 E0.98078
G1 X78.344 Y100.001 E0.98421
G1 X78.397 Y99.919 E0.98636
G1 X78.49 Y99.796 E0.98974
G1 X78.559 Y99.719 E0.99201
G1 X78.697 Y99.588 E0.99619
G1 X78.737 Y99.556 E0.99731
G1 X78.915 Y99.43 E1.0021
G1 X78.965 Y99.402 E1.00336
G1 X79.142 Y99.313 E1.00771
G1 X79.198 Y99.292 E1.00902
G1 X79.373 Y99.235 E1.01306
G1 X79.576 Y99.195 E1.0176
G1 X79.655 Y99.185 E1.01935
G1 X79.874 Y99.178 E1.02416
G1 X79.931 Y99.181 E1.02541
G1 X80.082 Y99.197 E1.02875
G1 X80.161 Y99.21 E1.0305
G1 X80.39 Y99.274 E1.03572
G1 X80.458 Y99.296 E1.03729
G1 X80.67 Y99.398 E1.04246
G1 X80.838 Y99.505 E1.04683
G1 X80.916 Y99.562 E1.04895
G1 X81.07 Y99.706 E1.05358
G1 X81.106 Y99.746 E1.05476
G1 X81.229 Y99.898 E1.05905
G1 X81.337 Y100.073 E1.06356
G1 X81.375 Y100.144 E1.06533
G1 X81.459 Y100.346 E1.07013
G1 X81.474 Y100.393 E1.07122
G1 X81.514 Y100.541 E1.07458
G1 X81.532 Y100.633 E1.07664
G1 X81.554 Y100.828 E1.08095
G1 X81.554 Y100.889 E1.08229
G1 X81.543 Y101.124 E1.08745
G1 X81.513 Y101.286 E1.09107
G1 X81.493 Y101.371 E1.09299
G1 X81.473 Y101.433 E1.09442
G1 X81.417 Y101.58 E1.09787
G1 X81.382 Y101.656 E1.09971
G1 X81.29 Y101.827 E1.10397
G1 X81.256 Y101.879 E1.10533
G1 X81.131 Y102.045 E1.10989
G1 X80.992 Y102.186 E1.11424
G1 X80.915 Y102.253 E1.11648
G1 X80.755 Y102.371 E1.12084
G1 X80.645 Y102.437 E1.12366
G1 X80.486 Y102.512 E1.12752
G1 X80.376 Y102.552 E1.13009
G1 X80.179 Y102.605 E1.13457
G0 F6000 X79.779 Y103.081
G1 F1200 X79.595 Y103.07 E1.13861
G1 X79.436 Y103.048 E1.14214
G1 X79.277 Y103.015 E1.1457
G1 X79.101 Y102.962 E1.14974
G1 X78.965 Y102.909 E1.15294
G1 X78.812 Y102.835 E1.15667
G1 X78.648 Y102.739 E1.16084
G1 X78.509 Y102.643 E1.16455
G1 X78.391 Y102.547 E1.16789
G1 X78.293 Y102.456 E1.17083
G1 X78.137 Y102.285 E1.17591
G1 X78.075 Y102.203 E1.17816
G1 X77.955 Y102.027 E1.18284
G1 X77.898 Y101.922 E1.18546
G1 X77.808 Y101.729 E1.19014
G1 X77.779 Y101.652 E1.19194
G1 X77.73 Y101.505 E1.19535
G1 X77.696 Y101.379 E1.19821
G1 X77.685 Y101.316 E1.19961
G1 X77.657 Y101.123 E1.20389
G1 X77.646 Y100.964 E1.20739
G1 X77.651 Y100.764 E1.21179
G1 X77.672 Y100.58 E1.21585
G1 X77.712 Y100.381 E1.22031
G1 X77.771 Y100.184 E1.22482
G1 X77.829 Y100.041 E1.22821
G1 X77.883 Y99.926 E1.231
G1 X77.958 Y99.789 E1.23443
G1 X78.046 Y99.654 E1.23796
G1 X78.139 Y99.531 E1.24135
G1 X78.254 Y99.402 E1.24514
G1 X78.412 Y99.252 E1.24992
G1 X78.48 Y99.199 E1.25182
G1 X78.62 Y99.098 E1.25561
G1 X78.683 Y99.056 E1.25727
G1 X78.766 Y99.009 E1.25936
G1 X78.966 Y98.91 E1.26426
G1 X79.06 Y98.874 E1.26647
G1 X79.259 Y98.81 E1.27106
G1 X79.341 Y98.791 E1.27291
G1 X79.56 Y98.752 E1.27779
G1 X79.658 Y98.744 E1.27995
G1 X79.82 Y98.738 E1.28351
G1 X79.942 Y98.74 E1.28619
G1 X80.195 Y98.769 E1.29178
G1 X80.309 Y98.794 E1.29434
G1 X80.509 Y98.85 E1.2989
G1 X80.621 Y98.888 E1.30149
G1 X80.814 Y98.977 E1.30616
G1 X80.889 Y99.017 E1.30802
G1 X81.074 Y99.133 E1.31282
G1 X81.144 Y99.182 E1.31469
G1 X81.228 Y99.251 E1.31708
G1 X81.388 Y99.401 E1.32189
G1 X81.447 Y99.468 E1.32385
G1 X81.545 Y99.588 E1.32725
G1 X81.586 Y99.642 E1.32874
G1 X81.631 Y99.709 E1.33052
G1 X81.713 Y99.843 E1.33396
G1 X81.743 Y99.896 E1.3353
G1 X81.789 Y99.992 E1.33764
G1 X81.874 Y100.199 E1.34255
G1 X81.898 Y100.278 E1.34436
G1 X81.954 Y100.492 E1.34922
G1 X81.969 Y100.58 E1.35118
G1 X81.987 Y100.727 E1.35443
G1 X81.993 Y100.806 E1.35617
G1 X81.993 Y100.908 E1.35841
G1 X81.986 Y101.098 E1.36258
G1 X81.98 Y101.172 E1.36421
G1 X81.964 Y101.273 E1.36645
G1 X81.934 Y101.419 E1.36973
G1 X81.918 Y101.487 E1.37126
G1 X81.885 Y101.589 E1.37361
G1 X81.802 Y101.801 E1.37861
G1 X81.687 Y102.02 E1.38404
G1 X81.65 Y102.082 E1.38563
G1 X81.509 Y102.277 E1.39091
G1 X81.463 Y102.333 E1.3925
G1 X81.413 Y102.387 E1.39411
G1 X81.305 Y102.496 E1.39748
G1 X81.176 Y102.607 E1.40122
G1 X81.017 Y102.725 E1.40557
G1 X80.833 Y102.835 E1.41027
G1 X80.674 Y102.91 E1.41413
G1 X80.49 Y102.977 E1.41843
G1 X80.293 Y103.03 E1.42291
G1 X80.197 Y103.051 E1.42506
G1 X80.109 Y103.063 E1.42701
G1 X79.947 Y103.078 E1.43059
G1 X79.845 Y103.082 E1.43283
G1 X79.779 Y103.081 E1.43428
G1 F2400 E0.43428
G1 F240 Z0.36
G0 F6000 X72.043 Y108.274 Z0.36
;TYPE:WALL-OUTER
G1 F240 Z0.12
G1 F2400 E1.43428
G1 F1411.8 X72.243 Y108.254 E1.43803
G1 F1320 X72.304 Y108.247 E1.43925
G1 F1248.2 X72.459 Y108.23 E1.44254
G1 F1202.7 X77.889 Y108.23 E1.56147
G1 X83.319 Y108.23 E1.6804
G1 X88.749 Y108.23 E1.79932
G1 F1200 X107.489 Y108.23 E2.2107
G1 F1191.9 X107.64 Y108.227 E2.21403
G1 F1142.9 X107.695 Y108.211 E2.21535
G1 F1058.1 X107.771 Y108.19 E2.21732
G1 F972.4 X107.848 Y108.168 E2.21949
G1 F907.2 X107.908 Y108.151 E2.2213
G1 F850.2 X107.986 Y108.128 E2.22382
G1 F794 X108.064 Y108.105 E2.22652
G1 X107.992 Y108.069 E2.22919
G1 F850.2 X107.919 Y108.033 E2.23171
G1 F907.2 X107.877 Y108.004 E2.23319
G1 F972.4 X107.813 Y107.957 E2.23534
G1 F1058.1 X107.748 Y107.909 E2.23735
G1 F1142.9 X107.726 Y107.883 E2.23814
G1 F1191.9 X107.594 Y107.809 E2.24148
G1 F1200 X107.564 Y107.79 E2.24226
G1 X107.419 Y107.677 E2.2463
G1 X107.311 Y107.567 E2.24968
G1 X107.289 Y107.542 E2.25041
G1 X107.197 Y107.415 E2.25385
G1 X107.179 Y107.386 E2.2546
G1 X107.111 Y107.253 E2.25788
G1 X107.05 Y107.081 E2.26189
G1 X107.041 Y107.047 E2.26266
G1 X107.014 Y106.895 E2.26605
G1 X107.011 Y106.858 E2.26686
G1 X107.01 Y106.656 E2.2713
G1 X107.013 Y106.616 E2.27218
G1 X107.044 Y106.445 E2.27599
G1 X107.095 Y106.289 E2.2796
G1 X107.107 Y106.26 E2.28029
G1 X107.175 Y106.123 E2.28364
G1 X107.192 Y106.094 E2.28438
G1 X107.281 Y105.967 E2.28779
G1 X107.304 Y105.939 E2.28858
G1 X107.412 Y105.83 E2.29195
G1 X107.435 Y105.81 E2.29262
G1 X107.582 Y105.7 E2.29665
G1 X107.713 Y105.626 E2.29995
G1 X107.746 Y105.611 E2.30075
G1 X107.886 Y105.56 E2.30402
G1 X107.916 Y105.551 E2.30471
G1 X108.072 Y105.518 E2.30821
